;FLAVOR:Marlin
;TIME:2347
;Filament used: 0.732482m
;Layer height: 0.35
;MINX:94.983
;MINY:31.394
;MINZ:0.35
;MAXX:145.7
;MAXY:88.431
;MAXZ:15.95
;Generated with Cura_SteamEngine 4.8.0
M140 S75
M105
M190 S75
M104 S210
M105
M109 S210
M82 ;absolute extrusion mode
G28 ;Home
G1 Z15.0 F6000 ;Move the platform down 15mm
G92 E0
G1 F200 E3
G92 E0
M420 S1 ; use bed mesh from eeprom
G92 E0
G92 E0
G1 F1500 E-2
;LAYER_COUNT:37
;LAYER:0
M107
M205 X30 Y30
G0 F1600 X98.354 Y54.385 Z0.35
M205 X20 Y20
;TYPE:SKIRT
G1 F1500 E0
G1 F1200 X98.564 Y54.021 E0.03348
G1 X98.886 Y53.489 E0.08302
G1 X99.055 Y53.219 E0.10839
G1 X99.358 Y52.752 E0.15274
G1 X99.603 Y52.392 E0.18743
G1 X99.965 Y51.883 E0.23718
G1 X100.169 Y51.606 E0.26459
G1 X100.514 Y51.154 E0.30989
G1 X100.778 Y50.823 E0.34362
G1 X101.157 Y50.367 E0.39085
G1 X101.387 Y50.1 E0.41892
G1 X101.756 Y49.686 E0.4631
G1 X101.992 Y49.43 E0.49084
G1 X102.391 Y49.012 E0.53688
G1 X102.689 Y48.712 E0.57056
G1 X103.163 Y48.255 E0.62301
G1 X103.404 Y48.03 E0.64928
G1 X103.819 Y47.655 E0.69384
G1 X103.991 Y47.503 E0.71212
G1 X119.684 Y33.951 E2.3639
G1 X120.393 Y33.392 E2.43583
G1 X121.149 Y32.897 E2.50781
G1 X121.945 Y32.471 E2.57973
G1 X122.775 Y32.119 E2.65155
G1 X122.978 Y32.043 E2.66882
G1 X123.837 Y31.764 E2.74077
G1 X124.717 Y31.562 E2.8127
G1 X125.612 Y31.439 E2.88467
G1 X126.552 Y31.395 E2.95963
G1 X132.612 Y31.394 E3.44239
G1 X134.48 Y31.397 E3.5912
G1 X135.383 Y31.438 E3.66321
G1 X136.277 Y31.56 E3.73509
G1 X137.158 Y31.759 E3.80704
G1 X138.018 Y32.036 E3.87901
G1 X138.85 Y32.388 E3.95098
G1 X139.647 Y32.812 E4.0229
G1 X140.404 Y33.305 E4.09486
G1 X141.114 Y33.863 E4.1668
G1 X141.676 Y34.385 E4.2279
G1 X142.027 Y34.736 E4.26745
G1 X142.637 Y35.402 E4.33939
G1 X143.186 Y36.119 E4.41133
G1 X143.668 Y36.883 E4.48329
G1 X144.082 Y37.686 E4.55527
G1 X144.422 Y38.522 E4.62716
G1 X144.688 Y39.385 E4.6991
G1 X144.876 Y40.268 E4.77102
G1 X144.985 Y41.165 E4.843
G1 X145.015 Y41.94 E4.90479
G1 X145.017 Y44.663 E5.12171
G1 X145.016 Y74.418 E7.49207
G1 X144.994 Y75.092 E7.54579
G1 X144.961 Y75.59 E7.58555
G1 X144.784 Y76.92 E7.69244
G1 X144.683 Y77.424 E7.73339
G1 X144.467 Y78.301 E7.80534
G1 X144.308 Y78.792 E7.84645
G1 X144.136 Y79.283 E7.8879
G1 X143.8 Y80.121 E7.95982
G1 X143.59 Y80.557 E7.99837
G1 X143.349 Y81.028 E8.04052
G1 X142.903 Y81.813 E8.11244
G1 X142.638 Y82.213 E8.15067
G1 X142.344 Y82.635 E8.19164
G1 X141.796 Y83.352 E8.26353
G1 X141.463 Y83.73 E8.30366
G1 X141.106 Y84.116 E8.34555
G1 X140.464 Y84.751 E8.41748
G1 X140.095 Y85.069 E8.45629
G1 X139.696 Y85.397 E8.49743
G1 X138.974 Y85.939 E8.56935
G1 X138.576 Y86.198 E8.60718
G1 X138.132 Y86.472 E8.64874
G1 X137.343 Y86.912 E8.72071
G1 X136.871 Y87.134 E8.76226
G1 X136.392 Y87.344 E8.80393
G1 X135.549 Y87.669 E8.8759
G1 X135.103 Y87.808 E8.91312
G1 X134.6 Y87.952 E8.9548
G1 X133.829 Y88.141 E9.01803
G1 X133.775 Y88.152 E9.02242
G1 X132.746 Y88.307 E9.10532
G1 X132 Y88.381 E9.16504
G1 X130.992 Y88.431 E9.24544
G1 X108.989 Y88.428 E10.99826
G1 X108.267 Y88.402 E11.05581
G1 X107.732 Y88.364 E11.09854
G1 X106.835 Y88.261 E11.17047
G1 X106.318 Y88.164 E11.21237
G1 X105.814 Y88.056 E11.25343
G1 X104.94 Y87.827 E11.32541
G1 X104.47 Y87.67 E11.36488
G1 X103.977 Y87.491 E11.40667
G1 X103.142 Y87.145 E11.47867
G1 X102.724 Y86.938 E11.51583
G1 X102.264 Y86.697 E11.5572
G1 X101.484 Y86.243 E11.62909
G1 X101.062 Y85.957 E11.6697
G1 X100.64 Y85.655 E11.71104
G1 X99.93 Y85.097 E11.78298
G1 X99.581 Y84.784 E11.82033
G1 X99.2 Y84.425 E11.86203
G1 X98.571 Y83.777 E11.93397
G1 X98.232 Y83.375 E11.97586
G1 X97.907 Y82.969 E12.01729
G1 X97.374 Y82.24 E12.08923
G1 X97.132 Y81.857 E12.12532
G1 X96.864 Y81.412 E12.16671
G1 X96.433 Y80.619 E12.23861
G1 X96.226 Y80.166 E12.27828
G1 X96.02 Y79.685 E12.31997
G1 X95.701 Y78.84 E12.39192
G1 X95.557 Y78.358 E12.43199
G1 X95.416 Y77.842 E12.47461
G1 X95.216 Y76.961 E12.54657
G1 X95.107 Y76.178 E12.60955
G1 X95.035 Y75.465 E12.66664
G1 X94.983 Y74.44 E12.7484
G1 X94.983 Y67.196 E13.32548
G1 X94.985 Y66.983 E13.34244
G1 X94.998 Y66.362 E13.39193
G1 X95.012 Y66.006 E13.42031
G1 X95.045 Y65.415 E13.46746
G1 X95.072 Y65.054 E13.4963
G1 X95.12 Y64.53 E13.53822
G1 X95.162 Y64.149 E13.56875
G1 X95.243 Y63.524 E13.61896
G1 X95.307 Y63.097 E13.65336
G1 X95.408 Y62.513 E13.70057
G1 X95.467 Y62.202 E13.72579
G1 X95.588 Y61.612 E13.77377
G1 X95.685 Y61.187 E13.80849
G1 X95.815 Y60.667 E13.85119
G1 X95.908 Y60.32 E13.87981
G1 X96.089 Y59.691 E13.93195
G1 X96.204 Y59.318 E13.96305
G1 X96.389 Y58.757 E14.0101
G1 X96.518 Y58.39 E14.04109
G1 X96.724 Y57.837 E14.0881
G1 X96.859 Y57.493 E14.11754
G1 X97.077 Y56.967 E14.1629
G1 X97.233 Y56.611 E14.19387
G1 X97.479 Y56.076 E14.24077
G1 X97.64 Y55.742 E14.27031
G1 X97.916 Y55.195 E14.31912
G1 X98.086 Y54.872 E14.3482
G1 X98.354 Y54.385 E14.39248
M205 X30 Y30
G0 F1600 X99.405 Y54.964
M205 X20 Y20
G1 F1200 X99.59 Y54.643 E14.42199
G1 X99.912 Y54.111 E14.47153
G1 X100.062 Y53.872 E14.49401
G1 X100.365 Y53.405 E14.53836
G1 X100.581 Y53.088 E14.56892
G1 X100.943 Y52.579 E14.61867
G1 X101.123 Y52.334 E14.64289
G1 X101.468 Y51.882 E14.68819
G1 X101.701 Y51.59 E14.71795
G1 X102.08 Y51.134 E14.76519
G1 X102.282 Y50.899 E14.78987
G1 X102.651 Y50.485 E14.83405
G1 X102.86 Y50.259 E14.85857
G1 X103.259 Y49.841 E14.90461
G1 X103.522 Y49.576 E14.93435
G1 X103.996 Y49.119 E14.9868
G1 X104.209 Y48.92 E15.01002
G1 X104.624 Y48.545 E15.05458
G1 X104.776 Y48.411 E15.07072
G1 X120.469 Y34.859 E16.7225
G1 X121.136 Y34.336 E16.79003
G1 X121.85 Y33.877 E16.85764
G1 X122.604 Y33.488 E16.92523
G1 X123.195 Y33.242 E16.97623
G1 X123.398 Y33.166 E16.9935
G1 X124.206 Y32.907 E17.06109
G1 X125.034 Y32.724 E17.12864
G1 X125.876 Y32.621 E17.19622
G1 X126.553 Y32.595 E17.25019
G1 X132.61 Y32.594 E17.73271
G1 X134.478 Y32.597 E17.88152
G1 X135.326 Y32.638 E17.94915
G1 X136.165 Y32.759 E18.01668
G1 X136.99 Y32.959 E18.0843
G1 X137.792 Y33.235 E18.15187
G1 X138.564 Y33.585 E18.2194
G1 X139.301 Y34.007 E18.28705
G1 X139.994 Y34.496 E18.35462
G1 X140.828 Y35.233 E18.44328
G1 X141.179 Y35.584 E18.48282
G1 X141.75 Y36.211 E18.55038
G1 X142.259 Y36.89 E18.61798
G1 X142.702 Y37.613 E18.68553
G1 X143.075 Y38.375 E18.75312
G1 X143.375 Y39.169 E18.82073
G1 X143.599 Y39.987 E18.8883
G1 X143.744 Y40.823 E18.95589
G1 X143.815 Y41.941 E19.04513
G1 X143.817 Y44.663 E19.26197
G1 X143.816 Y74.418 E21.63234
G1 X143.796 Y75.013 E21.67976
G1 X143.763 Y75.511 E21.71952
G1 X143.608 Y76.684 E21.81378
G1 X143.507 Y77.188 E21.85473
G1 X143.176 Y78.395 E21.95443
G1 X143.004 Y78.886 E21.99587
G1 X142.522 Y80.011 E22.09337
G1 X142.281 Y80.482 E22.13552
G1 X141.654 Y81.527 E22.2326
G1 X141.36 Y81.949 E22.27358
G1 X140.582 Y82.915 E22.37238
G1 X140.225 Y83.301 E22.41427
G1 X139.333 Y84.142 E22.51193
G1 X138.934 Y84.47 E22.55308
G1 X137.945 Y85.177 E22.64993
G1 X137.501 Y85.451 E22.69149
G1 X136.389 Y86.035 E22.79155
G1 X135.91 Y86.245 E22.83321
G1 X134.773 Y86.654 E22.92947
G1 X134.27 Y86.798 E22.97115
G1 X133.589 Y86.965 E23.02701
G1 X133.535 Y86.976 E23.0314
G1 X132.627 Y87.113 E23.10455
G1 X131.881 Y87.187 E23.16427
G1 X130.992 Y87.231 E23.23518
G1 X108.989 Y87.228 E24.988
G1 X108.352 Y87.205 E25.03877
G1 X107.817 Y87.167 E25.0815
G1 X106.569 Y86.99 E25.18192
G1 X106.065 Y86.882 E25.22298
G1 X104.879 Y86.542 E25.32126
G1 X104.386 Y86.363 E25.36304
G1 X103.281 Y85.875 E25.45927
G1 X102.821 Y85.634 E25.50064
G1 X101.76 Y84.981 E25.59989
G1 X101.338 Y84.679 E25.64123
G1 X100.404 Y83.91 E25.73761
G1 X100.023 Y83.551 E25.77931
G1 X99.169 Y82.625 E25.87966
G1 X98.844 Y82.219 E25.92109
G1 X98.16 Y81.238 E26.01636
G1 X97.892 Y80.793 E26.05774
G1 X97.329 Y79.693 E26.15618
G1 X97.123 Y79.212 E26.19787
G1 X96.714 Y78.041 E26.29668
G1 X96.573 Y77.525 E26.33929
G1 X96.389 Y76.697 E26.40686
G1 X96.301 Y76.057 E26.45832
G1 X96.229 Y75.344 E26.51541
G1 X96.183 Y74.44 E26.58752
G1 X96.183 Y67.196 E27.1646
G1 X96.185 Y67.008 E27.17958
G1 X96.198 Y66.387 E27.22906
G1 X96.21 Y66.073 E27.25409
G1 X96.243 Y65.482 E27.30124
G1 X96.267 Y65.163 E27.32673
G1 X96.315 Y64.639 E27.36865
G1 X96.352 Y64.303 E27.39557
G1 X96.433 Y63.678 E27.44578
G1 X96.49 Y63.301 E27.47615
G1 X96.591 Y62.717 E27.52337
G1 X96.643 Y62.443 E27.54558
G1 X96.764 Y61.853 E27.59356
G1 X96.849 Y61.478 E27.6242
G1 X96.979 Y60.958 E27.66689
G1 X97.061 Y60.652 E27.69213
G1 X97.242 Y60.023 E27.74427
G1 X97.344 Y59.693 E27.77179
G1 X97.529 Y59.132 E27.81885
G1 X97.642 Y58.809 E27.84611
G1 X97.848 Y58.256 E27.89312
G1 X97.968 Y57.952 E27.91915
G1 X98.186 Y57.426 E27.96451
G1 X98.323 Y57.112 E27.9918
G1 X98.569 Y56.577 E28.03871
G1 X98.711 Y56.283 E28.06472
G1 X98.987 Y55.736 E28.11353
G1 X99.137 Y55.451 E28.13919
G1 X99.405 Y54.964 E28.18347
M205 X30 Y30
G0 F1600 X100.456 Y55.542
M205 X20 Y20
G1 F1200 X100.617 Y55.264 E28.20906
G1 X100.939 Y54.732 E28.2586
G1 X101.069 Y54.526 E28.27801
G1 X101.372 Y54.059 E28.32235
G1 X101.559 Y53.783 E28.34891
G1 X101.921 Y53.274 E28.39867
G1 X102.077 Y53.062 E28.41964
G1 X102.422 Y52.61 E28.46493
G1 X102.623 Y52.357 E28.49067
G1 X103.002 Y51.901 E28.53791
G1 X103.178 Y51.697 E28.55937
G1 X103.547 Y51.283 E28.60355
G1 X103.728 Y51.087 E28.62481
G1 X104.127 Y50.669 E28.67084
G1 X104.355 Y50.44 E28.69658
G1 X104.829 Y49.983 E28.74904
G1 X105.014 Y49.811 E28.76916
G1 X105.56 Y49.32 E28.82765
G1 X121.253 Y35.768 E30.47944
G1 X121.876 Y35.282 E30.54238
G1 X122.545 Y34.863 E30.60526
G1 X123.616 Y34.366 E30.69932
G1 X123.819 Y34.29 E30.71659
G1 X124.572 Y34.051 E30.77952
G1 X125.345 Y33.889 E30.84244
G1 X126.13 Y33.807 E30.90532
G1 X126.553 Y33.795 E30.93903
G1 X132.609 Y33.794 E31.42147
G1 X134.477 Y33.797 E31.57028
G1 X135.265 Y33.838 E31.63313
G1 X136.046 Y33.959 E31.69609
G1 X136.81 Y34.158 E31.75899
G1 X137.55 Y34.433 E31.82188
G1 X138.258 Y34.782 E31.88476
G1 X138.928 Y35.201 E31.94771
G1 X139.552 Y35.685 E32.01062
G1 X139.979 Y36.082 E32.05707
G1 X140.33 Y36.433 E32.09661
G1 X140.86 Y37.019 E32.15955
G1 X141.327 Y37.655 E32.22241
G1 X141.728 Y38.335 E32.2853
G1 X142.058 Y39.053 E32.34825
G1 X142.313 Y39.8 E32.41113
G1 X142.492 Y40.569 E32.47403
G1 X142.592 Y41.353 E32.53699
G1 X142.615 Y41.942 E32.58394
G1 X142.617 Y44.663 E32.80071
G1 X142.616 Y74.418 E35.17107
G1 X142.599 Y74.934 E35.2122
G1 X142.566 Y75.432 E35.25196
G1 X142.431 Y76.449 E35.33369
G1 X142.33 Y76.953 E35.37463
G1 X142.043 Y77.999 E35.46104
G1 X141.871 Y78.49 E35.50249
G1 X141.454 Y79.464 E35.58689
G1 X141.213 Y79.935 E35.62904
G1 X140.669 Y80.841 E35.71322
G1 X140.375 Y81.263 E35.75419
G1 X139.701 Y82.1 E35.8398
G1 X139.344 Y82.486 E35.88169
G1 X138.571 Y83.215 E35.96633
G1 X138.172 Y83.543 E36.00748
G1 X137.315 Y84.156 E36.09142
G1 X136.871 Y84.43 E36.13298
G1 X135.907 Y84.936 E36.21971
G1 X135.428 Y85.146 E36.26138
G1 X134.443 Y85.501 E36.34478
G1 X133.94 Y85.645 E36.38646
G1 X133.35 Y85.789 E36.43484
G1 X133.296 Y85.8 E36.43923
G1 X132.509 Y85.919 E36.50264
G1 X131.763 Y85.993 E36.56236
G1 X130.992 Y86.031 E36.62386
G1 X108.989 Y86.028 E38.37668
G1 X108.437 Y86.008 E38.42068
G1 X107.902 Y85.97 E38.4634
G1 X106.821 Y85.817 E38.55038
G1 X106.317 Y85.709 E38.59144
G1 X105.289 Y85.414 E38.67664
G1 X104.796 Y85.235 E38.71842
G1 X103.838 Y84.812 E38.80185
G1 X103.378 Y84.571 E38.84322
G1 X102.459 Y84.005 E38.9292
G1 X102.037 Y83.703 E38.97054
G1 X101.227 Y83.037 E39.05407
G1 X100.846 Y82.678 E39.09578
G1 X100.106 Y81.875 E39.18277
G1 X99.781 Y81.469 E39.2242
G1 X99.188 Y80.619 E39.30676
G1 X98.92 Y80.174 E39.34814
G1 X98.432 Y79.221 E39.43343
G1 X98.226 Y78.74 E39.47512
G1 X97.872 Y77.725 E39.56075
G1 X97.731 Y77.209 E39.60337
G1 X97.562 Y76.438 E39.66624
G1 X97.494 Y75.937 E39.70652
G1 X97.422 Y75.224 E39.76361
G1 X97.383 Y74.44 E39.82614
G1 X97.383 Y67.196 E40.40322
G1 X97.398 Y66.412 E40.46569
G1 X97.408 Y66.14 E40.48737
G1 X97.441 Y65.549 E40.53452
G1 X97.462 Y65.272 E40.55665
G1 X97.51 Y64.748 E40.59857
G1 X97.542 Y64.458 E40.62181
G1 X97.623 Y63.833 E40.67202
G1 X97.672 Y63.506 E40.69836
G1 X97.773 Y62.922 E40.74557
G1 X97.818 Y62.684 E40.76487
G1 X97.939 Y62.094 E40.81285
G1 X98.013 Y61.769 E40.8394
G1 X98.143 Y61.249 E40.8821
G1 X98.214 Y60.984 E40.90396
G1 X98.395 Y60.355 E40.9561
G1 X98.483 Y60.069 E40.97993
G1 X98.668 Y59.508 E41.02699
G1 X98.767 Y59.228 E41.05065
G1 X98.973 Y58.675 E41.09766
G1 X99.076 Y58.412 E41.12016
G1 X99.294 Y57.886 E41.16552
G1 X99.413 Y57.613 E41.18925
G1 X99.659 Y57.078 E41.23615
G1 X99.782 Y56.823 E41.25871
G1 X100.058 Y56.276 E41.30752
G1 X100.188 Y56.029 E41.32975
G1 X100.456 Y55.542 E41.37403
M205 X30 Y30
G0 F1600 X101.508 Y56.121
M205 X20 Y20
G1 F1200 X101.644 Y55.886 E41.39566
G1 X101.966 Y55.354 E41.4452
G1 X102.075 Y55.179 E41.46163
G1 X102.378 Y54.712 E41.50597
G1 X102.537 Y54.479 E41.52845
G1 X102.899 Y53.97 E41.5782
G1 X103.031 Y53.791 E41.59592
G1 X103.376 Y53.339 E41.64122
G1 X103.546 Y53.124 E41.66305
G1 X103.925 Y52.668 E41.71029
G1 X104.074 Y52.496 E41.72842
G1 X104.443 Y52.082 E41.7726
G1 X104.596 Y51.916 E41.79058
G1 X104.995 Y51.498 E41.83661
G1 X105.188 Y51.304 E41.85841
G1 X105.662 Y50.847 E41.91087
G1 X105.818 Y50.701 E41.92789
G1 X106.344 Y50.228 E41.98424
G1 X122.037 Y36.676 E43.63602
G1 X122.612 Y36.232 E43.69389
G1 X123.233 Y35.854 E43.75181
G1 X124.037 Y35.49 E43.82211
G1 X124.24 Y35.414 E43.83938
G1 X124.933 Y35.197 E43.89723
G1 X125.646 Y35.058 E43.9551
G1 X126.553 Y34.995 E44.02753
G1 X132.607 Y34.994 E44.50981
G1 X134.475 Y34.997 E44.65862
G1 X135.2 Y35.038 E44.71646
G1 X135.916 Y35.159 E44.77431
G1 X136.615 Y35.357 E44.83219
G1 X137.287 Y35.631 E44.89
G1 X137.926 Y35.978 E44.94792
G1 X138.522 Y36.392 E45.00573
G1 X139.131 Y36.93 E45.07047
G1 X139.482 Y37.281 E45.11001
G1 X139.966 Y37.822 E45.16784
G1 X140.389 Y38.413 E45.22574
G1 X140.743 Y39.047 E45.28358
G1 X141.026 Y39.716 E45.34145
G1 X141.234 Y40.412 E45.39932
G1 X141.364 Y41.127 E45.45721
G1 X141.415 Y41.943 E45.52234
G1 X141.417 Y44.663 E45.73902
G1 X141.416 Y74.418 E48.10939
G1 X141.369 Y75.352 E48.18389
G1 X141.254 Y76.213 E48.25309
G1 X141.153 Y76.717 E48.29403
G1 X140.911 Y77.602 E48.36712
G1 X140.739 Y78.093 E48.40857
G1 X140.386 Y78.917 E48.47998
G1 X140.145 Y79.388 E48.52213
G1 X139.684 Y80.155 E48.59342
G1 X139.39 Y80.577 E48.63439
G1 X138.82 Y81.285 E48.7068
G1 X138.463 Y81.671 E48.74868
G1 X137.809 Y82.288 E48.82031
G1 X137.41 Y82.616 E48.86146
G1 X136.685 Y83.135 E48.93248
G1 X136.241 Y83.409 E48.97405
G1 X135.425 Y83.837 E49.04745
G1 X134.946 Y84.047 E49.08912
G1 X134.112 Y84.347 E49.15972
G1 X133.609 Y84.491 E49.2014
G1 X133.11 Y84.613 E49.24232
G1 X133.056 Y84.624 E49.24671
G1 X132.39 Y84.725 E49.30038
G1 X131.644 Y84.799 E49.3601
G1 X130.992 Y84.831 E49.4121
G1 X108.989 Y84.828 E51.16492
G1 X108.522 Y84.811 E51.20215
G1 X107.987 Y84.773 E51.24487
G1 X107.072 Y84.643 E51.3185
G1 X106.568 Y84.535 E51.35956
G1 X105.699 Y84.286 E51.43157
G1 X105.206 Y84.107 E51.47335
G1 X104.395 Y83.749 E51.54397
G1 X103.935 Y83.508 E51.58534
G1 X103.157 Y83.029 E51.65813
G1 X102.735 Y82.727 E51.69946
G1 X102.05 Y82.164 E51.7701
G1 X101.669 Y81.805 E51.8118
G1 X101.043 Y81.126 E51.88537
G1 X100.718 Y80.72 E51.9268
G1 X100.216 Y80 E51.99672
G1 X99.948 Y79.555 E52.03811
G1 X99.535 Y78.748 E52.11032
G1 X99.329 Y78.267 E52.15201
G1 X99.029 Y77.409 E52.22442
G1 X98.888 Y76.893 E52.26703
G1 X98.736 Y76.183 E52.32487
G1 X98.688 Y75.816 E52.35436
G1 X98.616 Y75.103 E52.41145
G1 X98.583 Y74.44 E52.46433
G1 X98.584 Y67.058 E53.0524
G1 X98.597 Y66.437 E53.10188
G1 X98.606 Y66.207 E53.12022
G1 X98.639 Y65.616 E53.16737
G1 X98.657 Y65.382 E53.18607
G1 X98.705 Y64.858 E53.22798
G1 X98.732 Y64.612 E53.2477
G1 X98.813 Y63.987 E53.2979
G1 X98.855 Y63.71 E53.32022
G1 X98.956 Y63.126 E53.36744
G1 X98.994 Y62.925 E53.38373
G1 X99.115 Y62.335 E53.43171
G1 X99.177 Y62.06 E53.45417
G1 X99.307 Y61.54 E53.49687
G1 X99.367 Y61.316 E53.51534
G1 X99.548 Y60.687 E53.56748
G1 X99.623 Y60.445 E53.58767
G1 X99.808 Y59.884 E53.63472
G1 X99.891 Y59.647 E53.65473
G1 X100.097 Y59.094 E53.70174
G1 X100.185 Y58.871 E53.72084
G1 X100.403 Y58.345 E53.7662
G1 X100.504 Y58.115 E53.78621
G1 X100.75 Y57.58 E53.83312
G1 X100.854 Y57.364 E53.85221
G1 X101.13 Y56.817 E53.90102
G1 X101.24 Y56.608 E53.91984
