;FLAVOR:Marlin
;TIME:18045
;Filament used: 11.8551m
;Layer height: 0.35
;MINX:54.3
;MINY:50.634
;MINZ:0.35
;MAXX:195.7
;MAXY:145.034
;MAXZ:95.75
;Generated with Cura_SteamEngine 4.8.0
M140 S75
M105
M190 S75
M104 S210
M105
M109 S210
M82 ;absolute extrusion mode
G28 ;Home
G1 Z15.0 F6000 ;Move the platform down 15mm
G92 E0
G1 F200 E3
G92 E0
M420 S1 ; use bed mesh from eeprom
G92 E0
G92 E0
G1 F1500 E-2
;LAYER_COUNT:265
;LAYER:0
M107
M205 X30 Y30
G0 F1600 X57.288 Y53.973 Z0.35
M205 X20 Y20
;TYPE:SKIRT
G1 F1500 E0
G1 F1200 X57.639 Y53.622 E0.03954
G1 X58.305 Y53.012 E0.11149
G1 X59.022 Y52.463 E0.18343
G1 X59.786 Y51.981 E0.25539
G1 X60.589 Y51.567 E0.32736
G1 X61.425 Y51.227 E0.39926
G1 X62.288 Y50.961 E0.4712
G1 X63.171 Y50.773 E0.54312
G1 X64.068 Y50.664 E0.6151
G1 X64.851 Y50.634 E0.67752
G1 X185.149 Y50.634 E10.26079
G1 X186.051 Y50.674 E10.33271
G1 X186.946 Y50.794 E10.40465
G1 X187.827 Y50.992 E10.47658
G1 X188.687 Y51.267 E10.54851
G1 X189.52 Y51.618 E10.62052
G1 X190.318 Y52.041 E10.69247
G1 X191.075 Y52.532 E10.76435
G1 X191.786 Y53.089 E10.8363
G1 X192.361 Y53.622 E10.89876
G1 X192.712 Y53.973 E10.9383
G1 X193.322 Y54.639 E11.01025
G1 X193.871 Y55.356 E11.08219
G1 X194.353 Y56.12 E11.15415
G1 X194.767 Y56.923 E11.22612
G1 X195.107 Y57.759 E11.29801
G1 X195.373 Y58.622 E11.36995
G1 X195.561 Y59.505 E11.44187
G1 X195.67 Y60.402 E11.51386
G1 X195.7 Y61.185 E11.57628
G1 X195.7 Y134.483 E17.4154
G1 X195.66 Y135.385 E17.48732
G1 X195.54 Y136.28 E17.55926
G1 X195.342 Y137.161 E17.63119
G1 X195.067 Y138.021 E17.70312
G1 X194.716 Y138.854 E17.77513
G1 X194.293 Y139.652 E17.84708
G1 X193.802 Y140.409 E17.91896
G1 X193.245 Y141.12 E17.99091
G1 X192.712 Y141.695 E18.05337
G1 X192.361 Y142.046 E18.09291
G1 X191.695 Y142.656 E18.16486
G1 X190.978 Y143.205 E18.2368
G1 X190.214 Y143.687 E18.30876
G1 X189.411 Y144.101 E18.38073
G1 X188.575 Y144.441 E18.45262
G1 X187.712 Y144.707 E18.52456
G1 X186.829 Y144.895 E18.59648
G1 X185.932 Y145.004 E18.66847
G1 X185.149 Y145.034 E18.73089
G1 X64.851 Y145.034 E28.31415
G1 X63.949 Y144.994 E28.38608
G1 X63.054 Y144.874 E28.45801
G1 X62.173 Y144.676 E28.52995
G1 X61.313 Y144.401 E28.60188
G1 X60.48 Y144.05 E28.67388
G1 X59.682 Y143.627 E28.74583
G1 X58.925 Y143.136 E28.81771
G1 X58.214 Y142.579 E28.88966
G1 X57.639 Y142.046 E28.95212
G1 X57.288 Y141.695 E28.99167
G1 X56.678 Y141.029 E29.06361
G1 X56.129 Y140.312 E29.13555
G1 X55.647 Y139.548 E29.20751
G1 X55.233 Y138.745 E29.27949
G1 X54.893 Y137.909 E29.35138
G1 X54.627 Y137.046 E29.42332
G1 X54.439 Y136.163 E29.49524
G1 X54.33 Y135.266 E29.56722
G1 X54.3 Y134.483 E29.62964
G1 X54.3 Y61.185 E35.46876
G1 X54.34 Y60.283 E35.54069
G1 X54.46 Y59.388 E35.61262
G1 X54.658 Y58.507 E35.68456
G1 X54.933 Y57.647 E35.75648
G1 X55.284 Y56.814 E35.82849
G1 X55.707 Y56.016 E35.90044
G1 X56.198 Y55.259 E35.97232
G1 X56.755 Y54.548 E36.04427
G1 X57.288 Y53.973 E36.10673
M205 X30 Y30
G0 F1600 X58.136 Y54.821
M205 X20 Y20
G1 F1200 X58.487 Y54.47 E36.14628
G1 X59.114 Y53.899 E36.21383
G1 X59.793 Y53.39 E36.28144
G1 X60.516 Y52.947 E36.34898
G1 X61.278 Y52.574 E36.41657
G1 X62.072 Y52.274 E36.48419
G1 X62.89 Y52.05 E36.55175
G1 X63.726 Y51.905 E36.61934
G1 X64.851 Y51.834 E36.70914
G1 X185.149 Y51.834 E46.2924
G1 X185.996 Y51.874 E46.35995
G1 X186.836 Y51.994 E46.42755
G1 X187.661 Y52.192 E46.49514
G1 X188.464 Y52.467 E46.56275
G1 X189.237 Y52.816 E46.63032
G1 X189.973 Y53.236 E46.69783
G1 X190.667 Y53.724 E46.76541
G1 X191.513 Y54.47 E46.85527
G1 X191.864 Y54.821 E46.89481
G1 X192.435 Y55.448 E46.96237
G1 X192.944 Y56.127 E47.02997
G1 X193.387 Y56.85 E47.09752
G1 X193.76 Y57.612 E47.1651
G1 X194.06 Y58.406 E47.23272
G1 X194.284 Y59.224 E47.30028
G1 X194.429 Y60.06 E47.36787
G1 X194.5 Y61.185 E47.45767
G1 X194.5 Y134.483 E53.29679
G1 X194.46 Y135.33 E53.36434
G1 X194.34 Y136.17 E53.43193
G1 X194.142 Y136.995 E53.49952
G1 X193.867 Y137.798 E53.56714
G1 X193.518 Y138.571 E53.6347
G1 X193.098 Y139.307 E53.70221
G1 X192.61 Y140.001 E53.7698
G1 X191.864 Y140.847 E53.85965
G1 X191.513 Y141.198 E53.89919
G1 X190.886 Y141.769 E53.96675
G1 X190.207 Y142.278 E54.03435
G1 X189.484 Y142.721 E54.1019
G1 X188.722 Y143.094 E54.16949
G1 X187.928 Y143.394 E54.2371
G1 X187.11 Y143.618 E54.30467
G1 X186.274 Y143.763 E54.37226
G1 X185.149 Y143.834 E54.46206
G1 X64.851 Y143.834 E64.04532
G1 X64.004 Y143.794 E64.11287
G1 X63.164 Y143.674 E64.18047
G1 X62.339 Y143.476 E64.24806
G1 X61.536 Y143.201 E64.31567
G1 X60.763 Y142.852 E64.38324
G1 X60.027 Y142.432 E64.45074
G1 X59.333 Y141.944 E64.51833
G1 X58.487 Y141.198 E64.60818
G1 X58.136 Y140.847 E64.64773
G1 X57.565 Y140.22 E64.71528
G1 X57.056 Y139.541 E64.78289
G1 X56.613 Y138.818 E64.85043
G1 X56.24 Y138.056 E64.91802
G1 X55.94 Y137.262 E64.98564
G1 X55.716 Y136.444 E65.0532
G1 X55.571 Y135.608 E65.12079
G1 X55.5 Y134.483 E65.21059
G1 X55.5 Y61.185 E71.04971
G1 X55.54 Y60.338 E71.11726
G1 X55.66 Y59.498 E71.18485
G1 X55.858 Y58.673 E71.25244
G1 X56.133 Y57.87 E71.32006
G1 X56.482 Y57.097 E71.38762
G1 X56.902 Y56.361 E71.45513
G1 X57.39 Y55.667 E71.52271
G1 X58.136 Y54.821 E71.61257
M205 X30 Y30
G0 F1600 X58.985 Y55.67
M205 X20 Y20
G1 F1200 X59.336 Y55.319 E71.65211
G1 X59.922 Y54.789 E71.71505
G1 X60.558 Y54.322 E71.77791
G1 X61.238 Y53.921 E71.8408
G1 X61.956 Y53.591 E71.90375
G1 X62.703 Y53.336 E71.96663
G1 X63.472 Y53.157 E72.02953
G1 X64.256 Y53.057 E72.09249
G1 X64.851 Y53.034 E72.13992
G1 X185.149 Y53.034 E81.72319
G1 X185.938 Y53.074 E81.78612
G1 X186.718 Y53.193 E81.84898
G1 X187.483 Y53.391 E81.91193
G1 X188.223 Y53.665 E81.97479
G1 X188.932 Y54.013 E82.03771
G1 X189.603 Y54.431 E82.10069
G1 X190.227 Y54.914 E82.16355
G1 X190.664 Y55.319 E82.21101
G1 X191.015 Y55.67 E82.25055
G1 X191.545 Y56.256 E82.3135
G1 X192.012 Y56.892 E82.37636
G1 X192.413 Y57.572 E82.43924
G1 X192.743 Y58.29 E82.50219
G1 X192.998 Y59.037 E82.56507
G1 X193.177 Y59.806 E82.62797
G1 X193.277 Y60.59 E82.69093
G1 X193.3 Y61.185 E82.73837
G1 X193.3 Y134.483 E88.57748
G1 X193.26 Y135.272 E88.64042
G1 X193.141 Y136.052 E88.70328
G1 X192.943 Y136.817 E88.76623
G1 X192.669 Y137.557 E88.82909
G1 X192.321 Y138.266 E88.892
G1 X191.903 Y138.937 E88.95498
G1 X191.42 Y139.561 E89.01784
G1 X191.015 Y139.998 E89.06531
G1 X190.664 Y140.349 E89.10485
G1 X190.078 Y140.879 E89.16779
G1 X189.442 Y141.346 E89.23065
G1 X188.762 Y141.747 E89.29354
G1 X188.044 Y142.077 E89.35649
G1 X187.297 Y142.332 E89.41937
G1 X186.528 Y142.511 E89.48227
G1 X185.744 Y142.611 E89.54523
G1 X185.149 Y142.634 E89.59266
G1 X64.851 Y142.634 E99.17593
G1 X64.062 Y142.594 E99.23886
G1 X63.282 Y142.475 E99.30172
G1 X62.517 Y142.277 E99.36467
G1 X61.777 Y142.003 E99.42753
G1 X61.068 Y141.655 E99.49045
G1 X60.397 Y141.237 E99.55343
G1 X59.773 Y140.754 E99.61629
G1 X59.336 Y140.349 E99.66375
G1 X58.985 Y139.998 E99.70329
G1 X58.455 Y139.412 E99.76624
G1 X57.988 Y138.776 E99.82909
G1 X57.587 Y138.096 E99.89198
G1 X57.257 Y137.378 E99.95493
G1 X57.002 Y136.631 E100.01781
G1 X56.823 Y135.862 E100.08071
G1 X56.723 Y135.078 E100.14367
G1 X56.7 Y134.483 E100.19111
G1 X56.7 Y61.185 E106.03022
G1 X56.74 Y60.396 E106.09316
G1 X56.859 Y59.616 E106.15601
G1 X57.057 Y58.851 E106.21896
G1 X57.331 Y58.111 E106.28183
G1 X57.679 Y57.402 E106.34474
G1 X58.097 Y56.731 E106.40772
G1 X58.58 Y56.107 E106.47058
G1 X58.985 Y55.67 E106.51805
M205 X30 Y30
G0 F1600 X59.833 Y56.518
M205 X20 Y20
G1 F1200 X60.184 Y56.167 E106.55759
G1 X60.725 Y55.683 E106.61542
G1 X61.316 Y55.26 E106.67332
G1 X61.95 Y54.906 E106.73116
G1 X62.619 Y54.623 E106.78903
G1 X63.315 Y54.415 E106.8469
G1 X64.03 Y54.285 E106.90479
G1 X64.851 Y54.234 E106.97032
G1 X185.149 Y54.234 E116.55358
G1 X185.874 Y54.274 E116.61143
G1 X186.591 Y54.393 E116.66932
G1 X187.29 Y54.591 E116.7272
G1 X187.963 Y54.864 E116.78506
G1 X188.602 Y55.209 E116.84291
G1 X189.199 Y55.623 E116.90078
G1 X189.816 Y56.167 E116.96631
G1 X190.167 Y56.518 E117.00585
G1 X190.651 Y57.059 E117.06368
G1 X191.074 Y57.65 E117.12158
G1 X191.428 Y58.284 E117.17942
G1 X191.711 Y58.953 E117.23729
G1 X191.919 Y59.649 E117.29516
G1 X192.049 Y60.364 E117.35305
G1 X192.1 Y61.185 E117.41858
G1 X192.1 Y134.483 E123.2577
G1 X192.06 Y135.208 E123.31554
G1 X191.941 Y135.925 E123.37344
G1 X191.743 Y136.624 E123.43132
G1 X191.47 Y137.297 E123.48917
G1 X191.125 Y137.936 E123.54702
G1 X190.711 Y138.533 E123.6049
G1 X190.167 Y139.15 E123.67042
G1 X189.816 Y139.501 E123.70997
G1 X189.275 Y139.985 E123.7678
G1 X188.684 Y140.408 E123.82569
G1 X188.05 Y140.762 E123.88354
G1 X187.381 Y141.045 E123.94141
G1 X186.685 Y141.253 E123.99927
G1 X185.97 Y141.383 E124.05717
G1 X185.149 Y141.434 E124.1227
G1 X64.851 Y141.434 E133.70596
G1 X64.126 Y141.394 E133.7638
G1 X63.409 Y141.275 E133.8217
G1 X62.71 Y141.077 E133.87958
G1 X62.037 Y140.804 E133.93743
G1 X61.398 Y140.459 E133.99528
G1 X60.801 Y140.045 E134.05316
G1 X60.184 Y139.501 E134.11869
G1 X59.833 Y139.15 E134.15823
G1 X59.349 Y138.609 E134.21606
G1 X58.926 Y138.018 E134.27396
G1 X58.572 Y137.384 E134.3318
G1 X58.289 Y136.715 E134.38967
G1 X58.081 Y136.019 E134.44754
G1 X57.951 Y135.304 E134.50543
G1 X57.9 Y134.483 E134.57096
G1 X57.9 Y61.185 E140.41008
G1 X57.94 Y60.46 E140.46792
G1 X58.059 Y59.743 E140.52582
G1 X58.257 Y59.044 E140.58369
G1 X58.53 Y58.371 E140.64155
G1 X58.875 Y57.732 E140.6994
G1 X59.289 Y57.135 E140.75727
G1 X59.833 Y56.518 E140.8228
M205 X30 Y30
G0 F1600 X60.682 Y57.367
M205 X20 Y20
G1 F1200 X61.033 Y57.016 E140.86235
G1 X61.525 Y56.58 E140.91472
G1 X62.066 Y56.208 E140.96702
G1 X62.648 Y55.904 E141.01933
G1 X63.263 Y55.673 E141.07166
G1 X63.902 Y55.518 E141.12404
G1 X64.851 Y55.434 E141.19994
G1 X185.149 Y55.434 E150.7832
G1 X185.805 Y55.474 E150.83556
G1 X186.451 Y55.593 E150.88789
G1 X187.078 Y55.79 E150.94024
G1 X187.676 Y56.062 E150.99258
G1 X188.237 Y56.404 E151.04492
G1 X188.967 Y57.016 E151.1208
G1 X189.318 Y57.367 E151.16035
G1 X189.754 Y57.859 E151.21272
G1 X190.126 Y58.4 E151.26502
G1 X190.43 Y58.982 E151.31733
G1 X190.661 Y59.597 E151.36966
G1 X190.816 Y60.236 E151.42204
G1 X190.9 Y61.185 E151.49794
G1 X190.9 Y134.483 E157.33705
G1 X190.86 Y135.139 E157.38941
G1 X190.741 Y135.785 E157.44174
G1 X190.544 Y136.412 E157.49409
G1 X190.272 Y137.01 E157.54643
G1 X189.93 Y137.571 E157.59877
G1 X189.318 Y138.301 E157.67466
G1 X188.967 Y138.652 E157.7142
G1 X188.475 Y139.088 E157.76657
G1 X187.934 Y139.46 E157.81887
G1 X187.352 Y139.764 E157.87118
G1 X186.737 Y139.995 E157.92351
G1 X186.098 Y140.15 E157.97589
G1 X185.149 Y140.234 E158.05179
G1 X64.851 Y140.234 E167.63505
G1 X64.195 Y140.194 E167.68741
G1 X63.549 Y140.075 E167.73974
G1 X62.922 Y139.878 E167.79209
G1 X62.324 Y139.606 E167.84443
G1 X61.763 Y139.264 E167.89677
G1 X61.033 Y138.652 E167.97266
G1 X60.682 Y138.301 E168.0122
G1 X60.246 Y137.809 E168.06457
G1 X59.874 Y137.268 E168.11687
G1 X59.57 Y136.686 E168.16918
G1 X59.339 Y136.071 E168.22151
G1 X59.184 Y135.432 E168.2739
G1 X59.1 Y134.483 E168.34979
G1 X59.1 Y61.185 E174.18891
G1 X59.14 Y60.529 E174.24126
G1 X59.259 Y59.883 E174.29359
G1 X59.456 Y59.256 E174.34595
G1 X59.728 Y58.658 E174.39828
G1 X60.07 Y58.097 E174.45062
G1 X60.682 Y57.367 E174.52651
M205 X30 Y30
G0 F1600 X61.881 Y57.864
M205 X20 Y20
G1 F1200 X62.318 Y57.484 E174.57264
G1 X62.803 Y57.167 E174.6188
G1 X63.327 Y56.92 E174.66495
G1 X63.88 Y56.748 E174.71108
G1 X64.452 Y56.653 E174.75727
G1 X64.851 Y56.634 E174.7891
G1 X185.149 Y56.634 E184.37236
G1 X185.727 Y56.674 E184.41852
G1 X186.294 Y56.793 E184.46467
G1 X186.839 Y56.989 E184.51081
G1 X187.352 Y57.258 E184.55695
G1 X187.823 Y57.595 E184.60309
G1 X188.47 Y58.215 E184.67447
G1 X188.85 Y58.652 E184.72061
G1 X189.167 Y59.137 E184.76676
G1 X189.414 Y59.661 E184.81291
G1 X189.586 Y60.214 E184.85905
G1 X189.681 Y60.786 E184.90524
G1 X189.7 Y61.185 E184.93706
G1 X189.7 Y134.483 E190.77618
G1 X189.66 Y135.061 E190.82233
G1 X189.541 Y135.628 E190.86849
G1 X189.345 Y136.173 E190.91462
G1 X189.076 Y136.686 E190.96077
G1 X188.739 Y137.157 E191.00691
G1 X188.119 Y137.804 E191.07829
G1 X187.682 Y138.184 E191.12443
G1 X187.197 Y138.501 E191.17058
G1 X186.673 Y138.748 E191.21673
G1 X186.12 Y138.92 E191.26287
G1 X185.548 Y139.015 E191.30906
G1 X185.149 Y139.034 E191.34088
G1 X64.851 Y139.034 E200.92414
G1 X64.273 Y138.994 E200.9703
G1 X63.706 Y138.875 E201.01645
G1 X63.161 Y138.679 E201.06259
G1 X62.648 Y138.41 E201.10873
G1 X62.177 Y138.073 E201.15487
G1 X61.53 Y137.453 E201.22626
G1 X61.15 Y137.016 E201.27239
G1 X60.833 Y136.531 E201.31855
G1 X60.586 Y136.007 E201.3647
G1 X60.414 Y135.454 E201.41083
G1 X60.319 Y134.882 E201.45702
G1 X60.3 Y134.483 E201.48884
G1 X60.3 Y61.185 E207.32796
G1 X60.34 Y60.607 E207.37412
G1 X60.459 Y60.04 E207.42027
G1 X60.655 Y59.495 E207.46641
G1 X60.924 Y58.982 E207.51255
G1 X61.261 Y58.511 E207.55869
G1 X61.881 Y57.864 E207.63007
M205 X30 Y30
G0 F1600 X62.73 Y58.713
M205 X20 Y20
G1 F1200 X63.103 Y58.396 E207.66907
G1 X63.523 Y58.144 E207.70809
G1 X63.978 Y57.964 E207.74707
G1 X64.456 Y57.86 E207.78604
G1 X64.851 Y57.834 E207.81757
G1 X185.149 Y57.834 E217.40084
G1 X185.637 Y57.874 E217.43984
G1 X186.112 Y57.993 E217.47885
G1 X186.561 Y58.187 E217.51782
G1 X186.973 Y58.452 E217.55684
G1 X187.621 Y59.064 E217.62785
G1 X187.938 Y59.437 E217.66684
G1 X188.19 Y59.857 E217.70586
G1 X188.37 Y60.312 E217.74484
G1 X188.474 Y60.79 E217.78381
G1 X188.5 Y61.185 E217.81534
G1 X188.5 Y134.483 E223.65446
G1 X188.46 Y134.971 E223.69347
G1 X188.341 Y135.446 E223.73248
G1 X188.147 Y135.895 E223.77144
G1 X187.882 Y136.307 E223.81047
G1 X187.27 Y136.955 E223.88147
G1 X186.897 Y137.272 E223.92047
G1 X186.477 Y137.524 E223.95948
G1 X186.022 Y137.704 E223.99846
G1 X185.544 Y137.808 E224.03743
G1 X185.149 Y137.834 E224.06897
G1 X64.851 Y137.834 E233.65223
G1 X64.363 Y137.794 E233.69124
G1 X63.888 Y137.675 E233.73025
G1 X63.439 Y137.481 E233.76921
G1 X63.027 Y137.216 E233.80824
G1 X62.379 Y136.604 E233.87924
G1 X62.062 Y136.231 E233.91824
G1 X61.81 Y135.811 E233.95726
G1 X61.63 Y135.356 E233.99624
G1 X61.526 Y134.878 E234.03521
G1 X61.5 Y134.483 E234.06674
G1 X61.5 Y61.185 E239.90586
G1 X61.54 Y60.697 E239.94486
G1 X61.659 Y60.222 E239.98387
G1 X61.853 Y59.773 E240.02284
G1 X62.118 Y59.361 E240.06186
G1 X62.73 Y58.713 E240.13287
M205 X30 Y30
G0 F1600 X63.578 Y59.561
M205 X20 Y20
G1 F1200 X63.873 Y59.323 E240.16306
G1 X64.211 Y59.152 E240.19324
G1 X64.577 Y59.055 E240.2234
G1 X64.851 Y59.034 E240.24529
G1 X185.149 Y59.034 E249.82856
G1 X185.526 Y59.074 E249.85876
G1 X185.886 Y59.192 E249.88894
G1 X186.213 Y59.382 E249.91906
G1 X186.773 Y59.912 E249.98049
G1 X187.011 Y60.207 E250.01068
G1 X187.182 Y60.545 E250.04086
G1 X187.279 Y60.911 E250.07102
G1 X187.3 Y61.185 E250.09291
G1 X187.3 Y134.483 E255.93203
G1 X187.26 Y134.86 E255.96223
G1 X187.142 Y135.22 E255.99241
G1 X186.952 Y135.547 E256.02254
G1 X186.422 Y136.107 E256.08396
G1 X186.127 Y136.345 E256.11416
G1 X185.789 Y136.516 E256.14433
G1 X185.423 Y136.613 E256.1745
G1 X185.149 Y136.634 E256.19639
G1 X64.851 Y136.634 E265.77965
G1 X64.474 Y136.594 E265.80985
G1 X64.114 Y136.476 E265.84003
G1 X63.787 Y136.286 E265.87016
G1 X63.227 Y135.756 E265.93158
G1 X62.989 Y135.461 E265.96178
G1 X62.818 Y135.123 E265.99196
G1 X62.721 Y134.757 E266.02212
G1 X62.7 Y134.483 E266.04401
G1 X62.7 Y61.185 E271.88313
G1 X62.74 Y60.808 E271.91333
G1 X62.858 Y60.448 E271.94351
G1 X63.048 Y60.121 E271.97364
G1 X63.578 Y59.561 E272.03506
M205 X30 Y30
G1 F1500 E270.03506
G0 F1600 X64.076 Y60.761
M205 X20 Y20
G1 F1500 E272.03506
G1 F1200 X64.427 Y60.41 E272.0746
G1 X64.606 Y60.286 E272.09195
G1 X64.851 Y60.234 E272.1119
G1 X185.149 Y60.234 E281.69517
G1 X185.364 Y60.274 E281.71259
G1 X185.573 Y60.41 E281.73245
G1 X185.924 Y60.761 E281.772
G1 X186.048 Y60.94 E281.78934
G1 X186.1 Y61.185 E281.80929
G1 X186.1 Y134.483 E287.64841
G1 X186.06 Y134.698 E287.66583
G1 X185.924 Y134.907 E287.6857
G1 X185.573 Y135.258 E287.72524
G1 X185.394 Y135.382 E287.74259
G1 X185.149 Y135.434 E287.76254
G1 X64.851 Y135.434 E297.3458
G1 X64.636 Y135.394 E297.36323
G1 X64.427 Y135.258 E297.38309
G1 X64.076 Y134.907 E297.42263
G1 X63.952 Y134.728 E297.43998
G1 X63.9 Y134.483 E297.45993
