;FLAVOR:Marlin
;TIME:1282
;Filament used: 1.31576m
;Layer height: 0.35
;MINX:93.429
;MINY:17.307
;MINZ:0.35
;MAXX:156.571
;MAXY:100.319
;MAXZ:4.9
;Generated with Cura_SteamEngine 4.8.0
M140 S75
M105
M190 S75
M104 S210
M105
M109 S210
M82 ;absolute extrusion mode
G28 ;Home
G1 Z15.0 F6000 ;Move the platform down 15mm
G92 E0
G1 F200 E3
G92 E0
M420 S1 ; use bed mesh from eeprom
G92 E0
G92 E0
G1 F1500 E-2
;LAYER_COUNT:14
;LAYER:0
M107
M205 X30 Y30
G0 F1600 X94.079 Y28.134 Z0.35
M205 X20 Y20
;TYPE:SKIRT
G1 F1500 E0
G1 F1200 X94.261 Y27.568 E0.04736
G1 X94.556 Y26.767 E0.11536
G1 X94.75 Y26.325 E0.15382
G1 X94.997 Y25.798 E0.20018
G1 X95.587 Y24.715 E0.29843
G1 X95.92 Y24.183 E0.34843
G1 X96.27 Y23.661 E0.39849
G1 X96.724 Y23.068 E0.45799
G1 X97.099 Y22.614 E0.5049
G1 X97.504 Y22.153 E0.55378
G1 X97.977 Y21.674 E0.60741
G1 X98.405 Y21.269 E0.65435
G1 X98.806 Y20.91 E0.69722
G1 X99.436 Y20.411 E0.76125
G1 X99.923 Y20.056 E0.80926
G1 X100.632 Y19.583 E0.87715
G1 X101.032 Y19.35 E0.91403
G1 X101.541 Y19.069 E0.96035
G1 X102.174 Y18.748 E1.01689
G1 X102.691 Y18.523 E1.0618
G1 X103.242 Y18.301 E1.10913
G1 X103.944 Y18.048 E1.16857
G1 X104.544 Y17.873 E1.21836
G1 X105.118 Y17.725 E1.26558
G1 X105.855 Y17.564 E1.32568
G1 X106.438 Y17.474 E1.37267
G1 X107.046 Y17.398 E1.42148
G1 X107.933 Y17.326 E1.49238
G1 X108.635 Y17.307 E1.54832
G1 X110.627 Y17.307 E1.70701
G1 X111.244 Y17.326 E1.75618
G1 X111.838 Y17.362 E1.80359
G1 X112.66 Y17.445 E1.86941
G1 X113.116 Y17.519 E1.90621
G1 X113.704 Y17.628 E1.95385
G1 X114.506 Y17.81 E2.01936
G1 X115.019 Y17.961 E2.06196
G1 X115.579 Y18.142 E2.10884
G1 X116.722 Y18.589 E2.20661
G1 X117.291 Y18.852 E2.25655
G1 X118.072 Y19.255 E2.32656
G1 X118.491 Y19.506 E2.36547
G1 X118.99 Y19.821 E2.41248
G1 X119.607 Y20.243 E2.47203
G1 X120.076 Y20.608 E2.51937
G1 X120.527 Y20.981 E2.566
G1 X120.983 Y21.382 E2.61437
G1 X121.462 Y21.855 E2.668
G1 X121.867 Y22.283 E2.71494
G1 X122.226 Y22.684 E2.75781
G1 X122.721 Y23.309 E2.82133
G1 X122.766 Y23.37 E2.82737
G1 X122.989 Y23.078 E2.85663
G1 X123.371 Y22.615 E2.90445
G1 X123.78 Y22.149 E2.95385
G1 X124.264 Y21.66 E3.00866
G1 X124.689 Y21.259 E3.0552
G1 X125.079 Y20.91 E3.0969
G1 X125.707 Y20.412 E3.16074
G1 X126.187 Y20.062 E3.20807
G1 X126.698 Y19.713 E3.25736
G1 X127.341 Y19.331 E3.31694
G1 X127.898 Y19.027 E3.3675
G1 X128.973 Y18.519 E3.46221
G1 X129.514 Y18.301 E3.50868
G1 X130.254 Y18.035 E3.57132
G1 X130.817 Y17.873 E3.61799
G1 X131.391 Y17.725 E3.66521
G1 X132.128 Y17.564 E3.72531
G1 X132.711 Y17.474 E3.7723
G1 X133.319 Y17.398 E3.82111
G1 X134.206 Y17.326 E3.89201
G1 X134.91 Y17.307 E3.94811
G1 X141.39 Y17.308 E4.46433
G1 X141.999 Y17.326 E4.51286
G1 X142.582 Y17.361 E4.55939
G1 X143.374 Y17.44 E4.62279
G1 X143.887 Y17.523 E4.66419
G1 X144.458 Y17.63 E4.71047
G1 X145.309 Y17.827 E4.78006
G1 X145.773 Y17.966 E4.81864
G1 X146.378 Y18.163 E4.86933
G1 X147.529 Y18.617 E4.9679
G1 X148.059 Y18.864 E5.01448
G1 X148.811 Y19.253 E5.08193
G1 X149.231 Y19.505 E5.12094
G1 X149.733 Y19.822 E5.16824
G1 X150.349 Y20.243 E5.22768
G1 X150.807 Y20.599 E5.27389
G1 X151.258 Y20.971 E5.32046
G1 X151.737 Y21.392 E5.37126
G1 X152.228 Y21.88 E5.42641
G1 X152.636 Y22.314 E5.47386
G1 X153.013 Y22.737 E5.519
G1 X153.454 Y23.298 E5.57585
G1 X153.802 Y23.773 E5.62276
G1 X154.252 Y24.441 E5.68692
G1 X154.528 Y24.911 E5.73034
G1 X154.813 Y25.428 E5.77737
G1 X155.131 Y26.055 E5.83337
G1 X155.359 Y26.581 E5.87904
G1 X155.578 Y27.126 E5.92583
G1 X155.803 Y27.739 E5.97785
G1 X156.001 Y28.411 E6.03366
G1 X156.15 Y28.987 E6.08106
G1 X156.304 Y29.682 E6.13777
G1 X156.399 Y30.279 E6.18592
G1 X156.474 Y30.863 E6.23283
G1 X156.549 Y31.755 E6.30414
G1 X156.571 Y32.515 E6.36471
G1 X156.57 Y37.534 E6.76454
G1 X156.543 Y38.273 E6.82345
G1 X156.505 Y38.795 E6.86514
G1 X156.423 Y39.538 E6.92469
G1 X156.293 Y40.264 E6.98344
G1 X156.181 Y40.779 E7.02543
G1 X155.984 Y41.542 E7.0882
G1 X155.757 Y42.22 E7.14516
G1 X155.571 Y42.718 E7.18751
G1 X155.239 Y43.504 E7.25548
G1 X154.956 Y44.065 E7.30554
G1 X154.701 Y44.533 E7.34799
G1 X154.34 Y45.145 E7.4046
G1 X154.317 Y45.181 E7.408
G1 X153.897 Y45.787 E7.46674
G1 X153.586 Y46.204 E7.50818
G1 X153.256 Y46.624 E7.55073
G1 X152.585 Y47.362 E7.63019
G1 X152.208 Y47.738 E7.6726
G1 X151.69 Y48.22 E7.72897
G1 X151.077 Y48.716 E7.79179
G1 X150.662 Y49.026 E7.83305
G1 X150.072 Y49.435 E7.89024
G1 X149.404 Y49.833 E7.95219
G1 X148.929 Y50.092 E7.99529
G1 X148.189 Y50.458 E8.06105
G1 X147.581 Y50.708 E8.11342
G1 X147.086 Y50.893 E8.15552
G1 X146.406 Y51.12 E8.21263
G1 X145.639 Y51.318 E8.27573
G1 X145.123 Y51.43 E8.3178
G1 X144.369 Y51.564 E8.3788
G1 X143.827 Y51.622 E8.42223
G1 X143.81 Y52.175 E8.4663
G1 X143.767 Y52.891 E8.52344
G1 X143.649 Y53.942 E8.60769
G1 X143.525 Y54.693 E8.66833
G1 X143.403 Y55.309 E8.71836
G1 X143.261 Y55.866 E8.76415
G1 X143.056 Y56.583 E8.82355
G1 X142.701 Y57.613 E8.91034
G1 X142.413 Y58.323 E8.97138
G1 X142.186 Y58.806 E9.0139
G1 X142.373 Y59.207 E9.04914
G1 X142.779 Y60.217 E9.13586
G1 X143.016 Y60.912 E9.19436
G1 X143.306 Y61.932 E9.27883
G1 X143.473 Y62.663 E9.33857
G1 X143.661 Y63.761 E9.42731
G1 X143.748 Y64.512 E9.48754
G1 X143.811 Y65.355 E9.55488
G1 X143.828 Y66.002 E9.60644
G1 X144.435 Y66.07 E9.6551
G1 X145.116 Y66.194 E9.71024
G1 X145.638 Y66.307 E9.75278
G1 X146.48 Y66.527 E9.82211
G1 X147.09 Y66.733 E9.8734
G1 X147.585 Y66.918 E9.9155
G1 X148.273 Y67.204 E9.97485
G1 X148.964 Y67.551 E10.03645
G1 X149.428 Y67.806 E10.07863
G1 X150.043 Y68.172 E10.13564
G1 X150.633 Y68.58 E10.19279
G1 X151.049 Y68.889 E10.23407
G1 X151.485 Y69.231 E10.27821
G1 X152.213 Y69.893 E10.3566
G1 X152.596 Y70.276 E10.39975
G1 X153.258 Y71.004 E10.47814
G1 X153.589 Y71.424 E10.52073
G1 X153.897 Y71.837 E10.56178
G1 X154.316 Y72.443 E10.62047
G1 X154.688 Y73.069 E10.67848
G1 X154.945 Y73.538 E10.72108
G1 X155.362 Y74.392 E10.79679
G1 X155.569 Y74.902 E10.84064
G1 X155.755 Y75.399 E10.88291
G1 X155.991 Y76.109 E10.94252
G1 X156.179 Y76.839 E11.00257
G1 X156.291 Y77.352 E11.0444
G1 X156.423 Y78.086 E11.10381
G1 X156.507 Y78.851 E11.16511
G1 X156.546 Y79.403 E11.2092
G1 X156.571 Y80.124 E11.26667
G1 X156.57 Y85.139 E11.66618
G1 X156.55 Y85.774 E11.71679
G1 X156.514 Y86.349 E11.76268
G1 X156.437 Y87.115 E11.82401
G1 X156.356 Y87.617 E11.86452
G1 X156.247 Y88.202 E11.91193
G1 X156.09 Y88.909 E11.96962
G1 X155.921 Y89.491 E12.0179
G1 X155.739 Y90.057 E12.06526
G1 X155.444 Y90.858 E12.13326
G1 X155.238 Y91.325 E12.17392
G1 X154.977 Y91.878 E12.22264
G1 X154.391 Y92.948 E12.31982
G1 X154.072 Y93.456 E12.36761
G1 X153.594 Y94.152 E12.43487
G1 X153.274 Y94.56 E12.47618
G1 X152.899 Y95.014 E12.52309
G1 X152.35 Y95.626 E12.58858
G1 X152.025 Y95.948 E12.62503
G1 X151.602 Y96.349 E12.67146
G1 X151.085 Y96.808 E12.72653
G1 X150.532 Y97.237 E12.78229
G1 X150.019 Y97.608 E12.83272
G1 X148.985 Y98.265 E12.93032
G1 X148.467 Y98.552 E12.97749
G1 X147.765 Y98.907 E13.04016
G1 X147.277 Y99.116 E13.08245
G1 X146.737 Y99.332 E13.12878
G1 X146.059 Y99.576 E13.18618
G1 X145.471 Y99.748 E13.23499
G1 X144.896 Y99.897 E13.28231
G1 X144.147 Y100.061 E13.34339
G1 X143.596 Y100.147 E13.38781
G1 X143.011 Y100.222 E13.4348
G1 X142.123 Y100.297 E13.50579
G1 X141.363 Y100.319 E13.56636
G1 X134.883 Y100.318 E14.08257
G1 X134.25 Y100.298 E14.13303
G1 X133.673 Y100.262 E14.17908
G1 X132.905 Y100.185 E14.24057
G1 X132.403 Y100.104 E14.28108
G1 X131.818 Y99.995 E14.32848
G1 X131.111 Y99.838 E14.38617
G1 X130.523 Y99.668 E14.43493
G1 X129.955 Y99.485 E14.48247
G1 X129.165 Y99.194 E14.54954
G1 X128.719 Y98.997 E14.58838
G1 X128.19 Y98.749 E14.63492
G1 X127.105 Y98.158 E14.73335
G1 X126.575 Y97.826 E14.78317
G1 X126.005 Y97.442 E14.83792
G1 X125.464 Y97.025 E14.89234
G1 X125.011 Y96.651 E14.93913
G1 X124.536 Y96.233 E14.98954
G1 X124.068 Y95.769 E15.04204
G1 X123.664 Y95.342 E15.08887
G1 X123.322 Y94.963 E15.12953
G1 X122.797 Y94.299 E15.19697
G1 X122.767 Y94.257 E15.20108
G1 X122.535 Y94.555 E15.23116
G1 X122.154 Y95.016 E15.27881
G1 X121.751 Y95.475 E15.32747
G1 X121.276 Y95.955 E15.38126
G1 X120.851 Y96.357 E15.42786
G1 X120.452 Y96.715 E15.47057
G1 X119.794 Y97.234 E15.53733
G1 X119.28 Y97.606 E15.58787
G1 X118.243 Y98.265 E15.68575
G1 X117.725 Y98.552 E15.73293
G1 X117.023 Y98.907 E15.7956
G1 X116.535 Y99.116 E15.83789
G1 X115.995 Y99.332 E15.88422
G1 X115.317 Y99.576 E15.94162
G1 X114.729 Y99.748 E15.99043
G1 X114.154 Y99.897 E16.03775
G1 X113.405 Y100.061 E16.09883
G1 X112.854 Y100.147 E16.14325
G1 X112.269 Y100.222 E16.19024
G1 X111.381 Y100.297 E16.26123
G1 X110.618 Y100.319 E16.32204
G1 X108.607 Y100.318 E16.48224
G1 X107.977 Y100.298 E16.53245
G1 X107.4 Y100.262 E16.57851
G1 X106.596 Y100.18 E16.64289
G1 X106.144 Y100.107 E16.67936
G1 X105.56 Y99.999 E16.72667
G1 X104.685 Y99.797 E16.79821
G1 X104.247 Y99.666 E16.83463
G1 X103.686 Y99.485 E16.88159
G1 X102.9 Y99.196 E16.9483
G1 X102.469 Y99.006 E16.98583
G1 X101.925 Y98.752 E17.03365
G1 X100.821 Y98.151 E17.13379
G1 X100.298 Y97.823 E17.18297
G1 X99.783 Y97.478 E17.23235
G1 X99.201 Y97.033 E17.29071
G1 X98.747 Y96.659 E17.33757
G1 X98.253 Y96.224 E17.39001
G1 X97.771 Y95.745 E17.44414
G1 X97.364 Y95.312 E17.49148
G1 X97.008 Y94.913 E17.53408
G1 X96.545 Y94.327 E17.59357
G1 X96.197 Y93.852 E17.64048
G1 X95.702 Y93.111 E17.71147
G1 X95.472 Y92.714 E17.74802
G1 X95.186 Y92.195 E17.79523
G1 X94.868 Y91.569 E17.85116
G1 X94.636 Y91.034 E17.89762
G1 X94.418 Y90.49 E17.9443
G1 X94.197 Y89.886 E17.99554
G1 X94 Y89.219 E18.05094
G1 X93.851 Y88.644 E18.09826
G1 X93.687 Y87.895 E18.15934
G1 X93.601 Y87.344 E18.20377
G1 X93.526 Y86.759 E18.25075
G1 X93.451 Y85.871 E18.32175
G1 X93.429 Y85.113 E18.38216
G1 X93.429 Y59.47 E20.42495
G1 X93.456 Y58.861 E20.47351
G1 X93.429 Y58.156 E20.52971
G1 X93.43 Y32.489 E22.57442
G1 X93.45 Y31.853 E22.62511
G1 X93.486 Y31.277 E22.67108
G1 X93.563 Y30.51 E22.73249
G1 X93.644 Y30.008 E22.773
G1 X93.753 Y29.423 E22.8204
G1 X93.91 Y28.716 E22.8781
G1 X94.079 Y28.134 E22.92637
M205 X30 Y30
G0 F1600 X95.221 Y28.501
M205 X20 Y20
G1 F1200 X95.403 Y27.935 E22.97374
G1 X95.663 Y27.228 E23.03375
G1 X95.837 Y26.834 E23.06806
G1 X96.084 Y26.307 E23.11442
G1 X96.604 Y25.352 E23.20105
G1 X96.937 Y24.82 E23.25105
G1 X97.248 Y24.355 E23.29561
G1 X97.649 Y23.832 E23.34811
G1 X98.024 Y23.378 E23.39502
G1 X98.384 Y22.968 E23.43849
G1 X98.802 Y22.546 E23.4858
G1 X99.23 Y22.141 E23.53274
G1 X99.587 Y21.821 E23.57094
G1 X100.142 Y21.381 E23.62736
G1 X100.629 Y21.026 E23.67537
G1 X101.259 Y20.607 E23.73564
G1 X101.612 Y20.401 E23.7682
G1 X102.121 Y20.12 E23.81452
G1 X102.683 Y19.835 E23.86472
G1 X103.14 Y19.636 E23.90442
G1 X103.691 Y19.414 E23.95175
G1 X104.314 Y19.189 E24.00451
G1 X104.844 Y19.035 E24.04848
G1 X105.418 Y18.887 E24.0957
G1 X106.073 Y18.744 E24.14911
G1 X106.587 Y18.664 E24.19055
G1 X107.195 Y18.588 E24.23936
G1 X107.978 Y18.525 E24.30194
G1 X108.635 Y18.507 E24.3543
G1 X110.627 Y18.507 E24.51299
G1 X111.171 Y18.523 E24.55634
G1 X111.765 Y18.559 E24.60375
G1 X112.495 Y18.634 E24.66221
G1 X112.897 Y18.699 E24.69465
G1 X113.485 Y18.808 E24.74229
G1 X114.193 Y18.969 E24.80013
G1 X114.65 Y19.103 E24.83807
G1 X115.21 Y19.284 E24.88495
G1 X116.218 Y19.678 E24.97117
G1 X116.787 Y19.941 E25.0211
G1 X117.476 Y20.297 E25.08288
G1 X117.85 Y20.521 E25.11761
G1 X118.349 Y20.836 E25.16462
G1 X118.897 Y21.21 E25.21748
G1 X119.311 Y21.533 E25.25931
G1 X119.762 Y21.906 E25.30593
G1 X120.168 Y22.262 E25.34895
G1 X120.59 Y22.68 E25.39626
G1 X120.995 Y23.108 E25.4432
G1 X121.315 Y23.465 E25.4814
G1 X121.752 Y24.016 E25.53742
G1 X122.106 Y24.501 E25.58525
G1 X122.533 Y25.142 E25.64661
G1 X122.769 Y25.552 E25.6843
G1 X122.885 Y25.337 E25.70376
G1 X123.212 Y24.816 E25.75276
G1 X123.517 Y24.36 E25.79646
G1 X123.915 Y23.841 E25.84856
G1 X124.297 Y23.378 E25.89638
G1 X124.66 Y22.964 E25.94024
G1 X125.088 Y22.533 E25.98863
G1 X125.513 Y22.132 E26.03518
G1 X125.86 Y21.821 E26.0723
G1 X126.414 Y21.382 E26.12861
G1 X126.894 Y21.032 E26.17593
G1 X127.349 Y20.721 E26.21984
G1 X127.916 Y20.384 E26.27238
G1 X128.473 Y20.08 E26.32293
G1 X129.421 Y19.632 E26.40646
G1 X129.962 Y19.414 E26.45293
G1 X130.616 Y19.18 E26.50826
G1 X131.117 Y19.035 E26.54981
G1 X131.691 Y18.887 E26.59703
G1 X132.346 Y18.744 E26.65044
G1 X132.86 Y18.664 E26.69188
G1 X133.468 Y18.588 E26.74069
G1 X134.251 Y18.525 E26.80327
G1 X134.909 Y18.507 E26.85571
G1 X141.389 Y18.508 E27.37192
G1 X141.927 Y18.524 E27.4148
G1 X142.51 Y18.559 E27.46133
G1 X143.213 Y18.629 E27.51761
G1 X143.666 Y18.702 E27.55416
G1 X144.237 Y18.809 E27.60044
G1 X144.988 Y18.983 E27.66185
G1 X145.402 Y19.107 E27.69628
G1 X146.007 Y19.304 E27.74696
G1 X147.022 Y19.704 E27.83387
G1 X147.552 Y19.951 E27.88045
G1 X148.215 Y20.295 E27.93996
G1 X148.59 Y20.519 E27.97475
G1 X149.092 Y20.836 E28.02205
G1 X149.639 Y21.21 E28.07484
G1 X150.044 Y21.525 E28.11571
G1 X150.495 Y21.897 E28.16228
G1 X150.92 Y22.271 E28.20738
G1 X151.353 Y22.701 E28.256
G1 X151.761 Y23.135 E28.30345
G1 X152.096 Y23.513 E28.34369
G1 X152.486 Y24.007 E28.39382
G1 X152.834 Y24.482 E28.44073
G1 X153.231 Y25.072 E28.49738
G1 X153.477 Y25.49 E28.53602
G1 X153.762 Y26.007 E28.58305
G1 X154.044 Y26.564 E28.63279
G1 X154.246 Y27.028 E28.6731
G1 X154.465 Y27.573 E28.71989
G1 X154.664 Y28.119 E28.76618
G1 X154.839 Y28.711 E28.81536
G1 X154.988 Y29.287 E28.86276
G1 X155.125 Y29.905 E28.91319
G1 X155.209 Y30.432 E28.9557
G1 X155.284 Y31.016 E29.0026
G1 X155.35 Y31.803 E29.06552
G1 X155.371 Y32.515 E29.12226
G1 X155.37 Y37.534 E29.52209
G1 X155.346 Y38.185 E29.57398
G1 X155.308 Y38.707 E29.61568
G1 X155.242 Y39.327 E29.66535
G1 X155.236 Y39.369 E29.66873
G1 X155.12 Y40.009 E29.72054
G1 X155.008 Y40.524 E29.76253
G1 X154.834 Y41.197 E29.8179
G1 X154.633 Y41.8 E29.86854
G1 X154.447 Y42.298 E29.91089
G1 X154.154 Y42.992 E29.9709
G1 X153.902 Y43.491 E30.01543
G1 X153.647 Y43.959 E30.05789
G1 X153.305 Y44.535 E30.11125
G1 X152.936 Y45.07 E30.16303
G1 X152.625 Y45.487 E30.20447
G1 X152.329 Y45.861 E30.24246
G1 X151.738 Y46.512 E30.31251
G1 X151.361 Y46.888 E30.35492
G1 X150.9 Y47.317 E30.40509
G1 X150.359 Y47.754 E30.46049
G1 X149.944 Y48.064 E30.50176
G1 X149.456 Y48.405 E30.54918
G1 X149.419 Y48.429 E30.5527
G1 X148.83 Y48.78 E30.60732
G1 X148.355 Y49.039 E30.65042
G1 X147.701 Y49.361 E30.70849
G1 X147.161 Y49.583 E30.755
G1 X146.666 Y49.768 E30.7971
G1 X146.061 Y49.97 E30.84791
G1 X145.384 Y50.145 E30.90361
G1 X144.868 Y50.257 E30.94568
G1 X144.203 Y50.376 E30.99949
G1 X144.16 Y50.382 E31.00295
G1 X143.543 Y50.446 E31.05237
G1 X142.72 Y50.504 E31.11809
G1 X142.639 Y50.515 E31.1246
G1 X142.629 Y50.615 E31.13261
G1 X142.628 Y51.573 E31.20893
G1 X142.612 Y52.104 E31.25125
G1 X142.569 Y52.82 E31.30839
G1 X142.465 Y53.746 E31.38262
G1 X142.341 Y54.497 E31.44326
G1 X142.233 Y55.044 E31.48767
G1 X142.107 Y55.536 E31.52813
G1 X141.902 Y56.253 E31.58754
G1 X141.589 Y57.162 E31.66413
G1 X141.301 Y57.872 E31.72516
G1 X140.887 Y58.752 E31.80264
G1 X140.853 Y58.816 E31.80841
G1 X140.971 Y59.038 E31.82844
G1 X141.285 Y59.713 E31.88774
G1 X141.643 Y60.604 E31.96424
G1 X141.88 Y61.299 E32.02273
G1 X142.136 Y62.2 E32.09735
G1 X142.303 Y62.931 E32.15708
G1 X142.469 Y63.899 E32.23532
G1 X142.556 Y64.65 E32.29555
G1 X142.611 Y65.394 E32.35498
G1 X142.629 Y66.086 E32.41013
G1 X142.629 Y66.936 E32.47784
G1 X142.638 Y67.11 E32.49172
G1 X143.043 Y67.142 E32.52408
G1 X143.575 Y67.181 E32.56658
G1 X144.261 Y67.258 E32.62157
G1 X144.862 Y67.367 E32.67023
G1 X145.384 Y67.48 E32.71278
G1 X146.127 Y67.674 E32.77395
G1 X146.67 Y67.858 E32.81962
G1 X147.165 Y68.043 E32.86172
G1 X147.772 Y68.295 E32.91408
G1 X148.386 Y68.603 E32.9688
G1 X148.85 Y68.858 E33.01098
G1 X149.397 Y69.184 E33.0617
G1 X149.918 Y69.543 E33.11211
G1 X150.334 Y69.852 E33.15339
G1 X150.722 Y70.158 E33.19275
G1 X151.365 Y70.741 E33.2619
G1 X151.748 Y71.124 E33.30505
G1 X152.331 Y71.767 E33.37419
G1 X152.627 Y72.142 E33.41225
G1 X152.935 Y72.555 E33.45329
G1 X153.304 Y73.089 E33.505
G1 X153.636 Y73.646 E33.55665
G1 X153.893 Y74.115 E33.59926
G1 X154.261 Y74.868 E33.66602
G1 X154.445 Y75.322 E33.70505
G1 X154.631 Y75.819 E33.74732
G1 X154.84 Y76.446 E33.79997
G1 X155.007 Y77.095 E33.85336
