;FLAVOR:Marlin
;TIME:9514
;Filament used: 3.79366m
;Layer height: 0.35
;MINX:84.8
;MINY:21.806
;MINZ:0.35
;MAXX:165.2
;MAXY:84.206
;MAXZ:52.7
;Generated with Cura_SteamEngine 4.8.0
M140 S75
M105
M190 S75
M104 S210
M105
M109 S210
M82 ;absolute extrusion mode
G28 ;Home
G1 Z15.0 F6000 ;Move the platform down 15mm
G92 E0
G1 F200 E3
G92 E0
M420 S1 ; use bed mesh from eeprom
G92 E0
G92 E0
G1 F1500 E-2
;LAYER_COUNT:142
;LAYER:0
M107
M205 X30 Y30
G0 F1600 X85.433 Y28.468 Z0.35
M205 X20 Y20
;TYPE:SKIRT
G1 F1500 E0
G1 F1200 X85.784 Y27.635 E0.07201
G1 X86.207 Y26.837 E0.14396
G1 X86.698 Y26.08 E0.21584
G1 X87.255 Y25.369 E0.28779
G1 X87.873 Y24.709 E0.35982
G1 X88.546 Y24.108 E0.4317
G1 X89.27 Y23.568 E0.50365
G1 X90.039 Y23.094 E0.57561
G1 X90.846 Y22.69 E0.64751
G1 X91.687 Y22.359 E0.7195
G1 X92.553 Y22.104 E0.79142
G1 X93.438 Y21.926 E0.86333
G1 X94.336 Y21.828 E0.9353
G1 X95 Y21.806 E0.98822
G1 X155 Y21.806 E5.76798
G1 X155.902 Y21.846 E5.83991
G1 X156.797 Y21.966 E5.91185
G1 X157.678 Y22.164 E5.98378
G1 X158.538 Y22.439 E6.05571
G1 X159.371 Y22.79 E6.12772
G1 X160.169 Y23.213 E6.19967
G1 X160.926 Y23.704 E6.27155
G1 X161.637 Y24.261 E6.3435
G1 X162.297 Y24.879 E6.41553
G1 X162.898 Y25.552 E6.4874
G1 X163.438 Y26.276 E6.55936
G1 X163.912 Y27.045 E6.63132
G1 X164.316 Y27.852 E6.70321
G1 X164.647 Y28.693 E6.77521
G1 X164.902 Y29.559 E6.84713
G1 X165.08 Y30.444 E6.91904
G1 X165.178 Y31.342 E6.991
G1 X165.2 Y32.006 E7.04393
G1 X165.2 Y74.006 E10.38976
G1 X165.16 Y74.908 E10.46169
G1 X165.04 Y75.803 E10.53362
G1 X164.842 Y76.684 E10.60556
G1 X164.567 Y77.544 E10.67748
G1 X164.216 Y78.377 E10.74949
G1 X163.793 Y79.175 E10.82144
G1 X163.302 Y79.932 E10.89332
G1 X162.745 Y80.643 E10.96527
G1 X162.127 Y81.303 E11.0373
G1 X161.454 Y81.904 E11.10918
G1 X160.73 Y82.444 E11.18113
G1 X159.961 Y82.918 E11.2531
G1 X159.154 Y83.322 E11.32499
G1 X158.313 Y83.653 E11.39699
G1 X157.447 Y83.908 E11.46891
G1 X156.562 Y84.086 E11.54082
G1 X155.664 Y84.184 E11.61278
G1 X155 Y84.206 E11.66571
G1 X95 Y84.206 E16.44547
G1 X94.098 Y84.166 E16.51739
G1 X93.203 Y84.046 E16.58933
G1 X92.322 Y83.848 E16.66126
G1 X91.462 Y83.573 E16.73319
G1 X90.629 Y83.222 E16.8052
G1 X89.831 Y82.799 E16.87715
G1 X89.074 Y82.308 E16.94903
G1 X88.363 Y81.751 E17.02098
G1 X87.703 Y81.133 E17.09301
G1 X87.102 Y80.46 E17.16489
G1 X86.562 Y79.736 E17.23684
G1 X86.088 Y78.967 E17.3088
G1 X85.684 Y78.16 E17.3807
G1 X85.353 Y77.319 E17.4527
G1 X85.098 Y76.453 E17.52461
G1 X84.92 Y75.568 E17.59653
G1 X84.822 Y74.67 E17.66849
G1 X84.8 Y74.006 E17.72141
G1 X84.8 Y32.006 E21.06725
G1 X84.84 Y31.104 E21.13917
G1 X84.96 Y30.209 E21.21111
G1 X85.158 Y29.328 E21.28304
G1 X85.433 Y28.468 E21.35497
M205 X30 Y30
G0 F1600 X86.633 Y28.691
M205 X20 Y20
G1 F1200 X86.982 Y27.918 E21.42253
G1 X87.402 Y27.182 E21.49004
G1 X87.89 Y26.488 E21.55763
G1 X88.441 Y25.843 E21.62521
G1 X89.051 Y25.253 E21.69281
G1 X89.713 Y24.723 E21.76037
G1 X90.422 Y24.257 E21.82796
G1 X91.172 Y23.861 E21.89552
G1 X91.956 Y23.536 E21.96313
G1 X92.767 Y23.287 E22.03071
G1 X93.598 Y23.116 E22.0983
G1 X94.441 Y23.023 E22.16586
G1 X95 Y23.006 E22.21041
G1 X155 Y23.006 E26.99018
G1 X155.847 Y23.046 E27.05773
G1 X156.687 Y23.166 E27.12532
G1 X157.512 Y23.364 E27.19291
G1 X158.315 Y23.639 E27.26053
G1 X159.088 Y23.988 E27.32809
G1 X159.824 Y24.408 E27.3956
G1 X160.518 Y24.896 E27.46318
G1 X161.163 Y25.447 E27.53076
G1 X161.753 Y26.057 E27.59837
G1 X162.283 Y26.719 E27.66592
G1 X162.749 Y27.428 E27.73351
G1 X163.145 Y28.178 E27.80107
G1 X163.47 Y28.962 E27.86868
G1 X163.719 Y29.773 E27.93627
G1 X163.89 Y30.604 E28.00385
G1 X163.983 Y31.447 E28.07142
G1 X164 Y32.006 E28.11597
G1 X164 Y74.006 E31.4618
G1 X163.96 Y74.853 E31.52935
G1 X163.84 Y75.693 E31.59695
G1 X163.642 Y76.518 E31.66454
G1 X163.367 Y77.321 E31.73215
G1 X163.018 Y78.094 E31.79972
G1 X162.598 Y78.83 E31.86722
G1 X162.11 Y79.524 E31.93481
G1 X161.559 Y80.169 E32.00239
G1 X160.949 Y80.759 E32.06999
G1 X160.287 Y81.289 E32.13755
G1 X159.578 Y81.755 E32.20514
G1 X158.828 Y82.151 E32.2727
G1 X158.044 Y82.476 E32.34031
G1 X157.233 Y82.725 E32.40789
G1 X156.402 Y82.896 E32.47548
G1 X155.559 Y82.989 E32.54304
G1 X155 Y83.006 E32.5876
G1 X95 Y83.006 E37.36736
G1 X94.153 Y82.966 E37.43491
G1 X93.313 Y82.846 E37.5025
G1 X92.488 Y82.648 E37.57009
G1 X91.685 Y82.373 E37.63771
G1 X90.912 Y82.024 E37.70527
G1 X90.176 Y81.604 E37.77278
G1 X89.482 Y81.116 E37.84036
G1 X88.837 Y80.565 E37.90794
G1 X88.247 Y79.955 E37.97555
G1 X87.717 Y79.293 E38.0431
G1 X87.251 Y78.584 E38.11069
G1 X86.855 Y77.834 E38.17826
G1 X86.53 Y77.05 E38.24587
G1 X86.281 Y76.239 E38.31345
G1 X86.11 Y75.408 E38.38104
G1 X86.017 Y74.565 E38.4486
G1 X86 Y74.006 E38.49315
G1 X86 Y32.006 E41.83898
G1 X86.04 Y31.159 E41.90653
G1 X86.16 Y30.319 E41.97413
G1 X86.358 Y29.494 E42.04172
G1 X86.633 Y28.691 E42.10933
M205 X30 Y30
G0 F1600 X87.557 Y29.672
M205 X20 Y20
G1 F1200 X87.831 Y28.932 E42.1722
G1 X88.179 Y28.223 E42.23511
G1 X88.597 Y27.552 E42.29809
G1 X89.08 Y26.928 E42.36095
G1 X89.623 Y26.355 E42.42384
G1 X90.222 Y25.84 E42.48677
G1 X90.87 Y25.389 E42.54966
G1 X91.561 Y25.005 E42.61264
G1 X92.286 Y24.693 E42.67551
G1 X93.039 Y24.456 E42.7384
G1 X93.813 Y24.297 E42.80135
G1 X94.598 Y24.216 E42.86422
G1 X95 Y24.206 E42.89625
G1 X155 Y24.206 E47.67601
G1 X155.789 Y24.246 E47.73895
G1 X156.569 Y24.365 E47.8018
G1 X157.334 Y24.563 E47.86475
G1 X158.074 Y24.837 E47.92761
G1 X158.783 Y25.185 E47.99053
G1 X159.454 Y25.603 E48.05351
G1 X160.078 Y26.086 E48.11637
G1 X160.651 Y26.629 E48.17926
G1 X161.166 Y27.228 E48.24219
G1 X161.617 Y27.876 E48.30508
G1 X162.001 Y28.567 E48.36806
G1 X162.313 Y29.292 E48.43093
G1 X162.55 Y30.045 E48.49382
G1 X162.709 Y30.819 E48.55677
G1 X162.79 Y31.604 E48.61963
G1 X162.8 Y32.006 E48.65167
G1 X162.8 Y74.006 E51.9975
G1 X162.76 Y74.795 E52.06044
G1 X162.641 Y75.575 E52.12329
G1 X162.443 Y76.34 E52.18624
G1 X162.169 Y77.08 E52.2491
G1 X161.821 Y77.789 E52.31202
G1 X161.403 Y78.46 E52.375
G1 X160.92 Y79.084 E52.43786
G1 X160.377 Y79.657 E52.50075
G1 X159.778 Y80.172 E52.56368
G1 X159.13 Y80.623 E52.62657
G1 X158.439 Y81.007 E52.68955
G1 X157.714 Y81.319 E52.75242
G1 X156.961 Y81.556 E52.81531
G1 X156.187 Y81.715 E52.87826
G1 X155.402 Y81.796 E52.94112
G1 X155 Y81.806 E52.97316
G1 X95 Y81.806 E57.75292
G1 X94.211 Y81.766 E57.81585
G1 X93.431 Y81.647 E57.87871
G1 X92.666 Y81.449 E57.94166
G1 X91.926 Y81.175 E58.00452
G1 X91.217 Y80.827 E58.06744
G1 X90.546 Y80.409 E58.13042
G1 X89.922 Y79.926 E58.19328
G1 X89.349 Y79.383 E58.25617
G1 X88.834 Y78.784 E58.3191
G1 X88.383 Y78.136 E58.38199
G1 X87.999 Y77.445 E58.44496
G1 X87.687 Y76.72 E58.50784
G1 X87.45 Y75.967 E58.57073
G1 X87.291 Y75.193 E58.63367
G1 X87.21 Y74.408 E58.69654
G1 X87.2 Y74.006 E58.72858
G1 X87.2 Y32.006 E62.07441
G1 X87.24 Y31.217 E62.13734
G1 X87.359 Y30.437 E62.2002
G1 X87.557 Y29.672 E62.26315
M205 X30 Y30
G0 F1600 X88.757 Y29.865
M205 X20 Y20
G1 F1200 X89.03 Y29.192 E62.32101
G1 X89.375 Y28.553 E62.37886
G1 X89.789 Y27.956 E62.43673
G1 X90.265 Y27.408 E62.49456
G1 X90.799 Y26.915 E62.55245
G1 X91.384 Y26.485 E62.61029
G1 X92.013 Y26.121 E62.66818
G1 X92.678 Y25.828 E62.72607
G1 X93.371 Y25.61 E62.78395
G1 X94.083 Y25.47 E62.84175
G1 X95 Y25.406 E62.91498
G1 X155 Y25.406 E67.69474
G1 X155.725 Y25.446 E67.75259
G1 X156.442 Y25.565 E67.81049
G1 X157.141 Y25.763 E67.86836
G1 X157.814 Y26.036 E67.92622
G1 X158.453 Y26.381 E67.98407
G1 X159.05 Y26.795 E68.04194
G1 X159.598 Y27.271 E68.09977
G1 X160.091 Y27.805 E68.15766
G1 X160.521 Y28.39 E68.2155
G1 X160.885 Y29.019 E68.2734
G1 X161.178 Y29.684 E68.33129
G1 X161.396 Y30.377 E68.38916
G1 X161.536 Y31.089 E68.44696
G1 X161.6 Y32.006 E68.52019
G1 X161.6 Y74.006 E71.86603
G1 X161.56 Y74.731 E71.92387
G1 X161.441 Y75.448 E71.98177
G1 X161.243 Y76.147 E72.03964
G1 X160.97 Y76.82 E72.0975
G1 X160.625 Y77.459 E72.15535
G1 X160.211 Y78.056 E72.21323
G1 X159.735 Y78.604 E72.27105
G1 X159.201 Y79.097 E72.32895
G1 X158.616 Y79.527 E72.38679
G1 X157.987 Y79.891 E72.44468
G1 X157.322 Y80.184 E72.50257
G1 X156.629 Y80.402 E72.56044
G1 X155.917 Y80.542 E72.61825
G1 X155 Y80.606 E72.69148
G1 X95 Y80.606 E77.47124
G1 X94.275 Y80.566 E77.52908
G1 X93.558 Y80.447 E77.58698
G1 X92.859 Y80.249 E77.64486
G1 X92.186 Y79.976 E77.70271
G1 X91.547 Y79.631 E77.76056
G1 X90.95 Y79.217 E77.81844
G1 X90.402 Y78.741 E77.87626
G1 X89.909 Y78.207 E77.93416
G1 X89.479 Y77.622 E77.992
G1 X89.115 Y76.993 E78.04989
G1 X88.822 Y76.328 E78.10778
G1 X88.604 Y75.635 E78.16565
G1 X88.464 Y74.923 E78.22346
G1 X88.4 Y74.006 E78.29669
G1 X88.4 Y32.006 E81.64252
G1 X88.44 Y31.281 E81.70036
G1 X88.559 Y30.564 E81.75826
G1 X88.757 Y29.865 E81.81614
M205 X30 Y30
G0 F1600 X89.956 Y30.077
M205 X20 Y20
G1 F1200 X90.228 Y29.479 E81.86847
G1 X90.57 Y28.918 E81.92081
G1 X90.978 Y28.403 E81.97316
G1 X91.445 Y27.941 E82.02549
G1 X91.965 Y27.54 E82.0778
G1 X92.529 Y27.204 E82.1301
G1 X93.131 Y26.94 E82.18246
G1 X93.76 Y26.75 E82.23481
G1 X94.407 Y26.639 E82.2871
G1 X95 Y26.606 E82.33441
G1 X155 Y26.606 E87.11418
G1 X155.656 Y26.646 E87.16653
G1 X156.302 Y26.765 E87.21886
G1 X156.929 Y26.962 E87.27122
G1 X157.527 Y27.234 E87.32355
G1 X158.088 Y27.576 E87.37589
G1 X158.603 Y27.984 E87.42823
G1 X159.065 Y28.451 E87.48056
G1 X159.466 Y28.971 E87.53287
G1 X159.802 Y29.535 E87.58517
G1 X160.066 Y30.137 E87.63754
G1 X160.256 Y30.766 E87.68988
G1 X160.367 Y31.413 E87.74218
G1 X160.4 Y32.006 E87.78949
G1 X160.4 Y74.006 E91.13532
G1 X160.36 Y74.662 E91.18768
G1 X160.241 Y75.308 E91.24001
G1 X160.044 Y75.935 E91.29236
G1 X159.772 Y76.533 E91.3447
G1 X159.43 Y77.094 E91.39704
G1 X159.022 Y77.609 E91.44938
G1 X158.555 Y78.071 E91.50171
G1 X158.035 Y78.472 E91.55402
G1 X157.471 Y78.808 E91.60632
G1 X156.869 Y79.072 E91.65869
G1 X156.24 Y79.262 E91.71103
G1 X155.593 Y79.373 E91.76333
G1 X155 Y79.406 E91.81064
G1 X95 Y79.406 E96.5904
G1 X94.344 Y79.366 E96.64276
G1 X93.698 Y79.247 E96.69509
G1 X93.071 Y79.05 E96.74744
G1 X92.473 Y78.778 E96.79978
G1 X91.912 Y78.436 E96.85212
G1 X91.397 Y78.028 E96.90446
G1 X90.935 Y77.561 E96.95679
G1 X90.534 Y77.041 E97.0091
G1 X90.198 Y76.477 E97.0614
G1 X89.934 Y75.875 E97.11376
G1 X89.744 Y75.246 E97.16611
G1 X89.633 Y74.599 E97.2184
G1 X89.6 Y74.006 E97.26572
G1 X89.6 Y32.006 E100.61155
G1 X89.64 Y31.35 E100.66391
G1 X89.759 Y30.704 E100.71623
G1 X89.956 Y30.077 E100.76859
M205 X30 Y30
G0 F1600 X91.155 Y30.316
M205 X20 Y20
G1 F1200 X91.424 Y29.803 E100.81473
G1 X91.761 Y29.332 E100.86087
G1 X92.16 Y28.912 E100.90702
G1 X92.613 Y28.55 E100.95321
G1 X93.111 Y28.255 E100.99932
G1 X93.645 Y28.03 E101.04549
G1 X94.205 Y27.882 E101.09163
G1 X95 Y27.806 E101.15525
G1 X155 Y27.806 E105.93501
G1 X155.578 Y27.846 E105.98117
G1 X156.145 Y27.965 E106.02732
G1 X156.69 Y28.161 E106.07346
G1 X157.203 Y28.43 E106.1196
G1 X157.674 Y28.767 E106.16574
G1 X158.094 Y29.166 E106.21189
G1 X158.456 Y29.619 E106.25808
G1 X158.751 Y30.117 E106.30419
G1 X158.976 Y30.651 E106.35035
G1 X159.124 Y31.211 E106.3965
G1 X159.2 Y32.006 E106.46012
G1 X159.2 Y74.006 E109.80595
G1 X159.16 Y74.584 E109.85211
G1 X159.041 Y75.151 E109.89826
G1 X158.845 Y75.696 E109.9444
G1 X158.576 Y76.209 E109.99054
G1 X158.239 Y76.68 E110.03668
G1 X157.84 Y77.1 E110.08283
G1 X157.387 Y77.462 E110.12902
G1 X156.889 Y77.757 E110.17513
G1 X156.355 Y77.982 E110.22129
G1 X155.795 Y78.13 E110.26744
G1 X155 Y78.206 E110.33106
G1 X95 Y78.206 E115.11082
G1 X94.422 Y78.166 E115.15698
G1 X93.855 Y78.047 E115.20313
G1 X93.31 Y77.851 E115.24927
G1 X92.797 Y77.582 E115.29541
G1 X92.326 Y77.245 E115.34155
G1 X91.906 Y76.846 E115.3877
G1 X91.544 Y76.393 E115.43389
G1 X91.249 Y75.895 E115.48
G1 X91.024 Y75.361 E115.52616
G1 X90.876 Y74.801 E115.57231
G1 X90.8 Y74.006 E115.63593
G1 X90.8 Y32.006 E118.98176
G1 X90.84 Y31.428 E119.02792
G1 X90.959 Y30.861 E119.07407
G1 X91.155 Y30.316 E119.12021
M205 X30 Y30
G0 F1600 X92.159 Y31.043
M205 X20 Y20
G1 F1200 X92.353 Y30.594 E119.15917
G1 X92.618 Y30.182 E119.1982
G1 X92.946 Y29.819 E119.23717
G1 X93.329 Y29.514 E119.27617
G1 X93.757 Y29.276 E119.31519
G1 X94.217 Y29.11 E119.35414
G1 X95 Y29.006 E119.41707
G1 X155 Y29.006 E124.19683
G1 X155.488 Y29.046 E124.23584
G1 X155.963 Y29.165 E124.27484
G1 X156.412 Y29.359 E124.31381
G1 X156.824 Y29.624 E124.35283
G1 X157.187 Y29.952 E124.39181
G1 X157.492 Y30.335 E124.43081
G1 X157.73 Y30.763 E124.46982
G1 X157.896 Y31.223 E124.50878
G1 X158 Y32.006 E124.5717
G1 X158 Y74.006 E127.91754
G1 X157.96 Y74.494 E127.95654
G1 X157.841 Y74.969 E127.99555
G1 X157.647 Y75.418 E128.03452
G1 X157.382 Y75.83 E128.07354
G1 X157.054 Y76.193 E128.11252
G1 X156.671 Y76.498 E128.15152
G1 X156.243 Y76.736 E128.19053
G1 X155.783 Y76.902 E128.22949
G1 X155 Y77.006 E128.29241
G1 X95 Y77.006 E133.07218
G1 X94.512 Y76.966 E133.11118
G1 X94.037 Y76.847 E133.15019
G1 X93.588 Y76.653 E133.18916
G1 X93.176 Y76.388 E133.22818
G1 X92.813 Y76.06 E133.26715
G1 X92.508 Y75.677 E133.30616
G1 X92.27 Y75.249 E133.34517
G1 X92.104 Y74.789 E133.38413
G1 X92 Y74.006 E133.44705
G1 X92 Y32.006 E136.79288
G1 X92.04 Y31.518 E136.83189
G1 X92.159 Y31.043 E136.8709
M205 X30 Y30
G0 F1600 X93.358 Y31.269
M205 X20 Y20
G1 F1200 X93.548 Y30.942 E136.90103
G1 X93.803 Y30.661 E136.93126
G1 X94.112 Y30.441 E136.96147
G1 X94.459 Y30.289 E136.99165
G1 X95 Y30.206 E137.03525
G1 X155 Y30.206 E141.81502
G1 X155.377 Y30.246 E141.84522
G1 X155.737 Y30.364 E141.8754
G1 X156.064 Y30.554 E141.90553
G1 X156.345 Y30.809 E141.93575
G1 X156.565 Y31.118 E141.96597
G1 X156.717 Y31.465 E141.99615
G1 X156.8 Y32.006 E142.03975
G1 X156.8 Y74.006 E145.38559
G1 X156.76 Y74.383 E145.41579
G1 X156.642 Y74.743 E145.44597
G1 X156.452 Y75.07 E145.47609
G1 X156.197 Y75.351 E145.50632
G1 X155.888 Y75.571 E145.53654
G1 X155.541 Y75.723 E145.56672
G1 X155 Y75.806 E145.61032
G1 X95 Y75.806 E150.39008
G1 X94.623 Y75.766 E150.42028
G1 X94.263 Y75.648 E150.45046
G1 X93.936 Y75.458 E150.48059
G1 X93.655 Y75.203 E150.51082
G1 X93.435 Y74.894 E150.54104
G1 X93.283 Y74.547 E150.57122
G1 X93.2 Y74.006 E150.61482
G1 X93.2 Y32.006 E153.96065
G1 X93.24 Y31.629 E153.99085
G1 X93.358 Y31.269 E154.02103
M205 X30 Y30
G1 F1500 E152.02103
G0 F1600 X94.44 Y31.791
M205 X20 Y20
G1 F1500 E154.02103
G1 F1200 X94.553 Y31.605 E154.03837
G1 X94.726 Y31.472 E154.05575
G1 X95 Y31.406 E154.07821
G1 X155 Y31.406 E158.85797
G1 X155.215 Y31.446 E158.87539
G1 X155.401 Y31.559 E158.89273
G1 X155.534 Y31.732 E158.91011
G1 X155.6 Y32.006 E158.93256
G1 X155.6 Y74.006 E162.2784
G1 X155.56 Y74.221 E162.29582
G1 X155.447 Y74.407 E162.31316
G1 X155.274 Y74.54 E162.33054
G1 X155 Y74.606 E162.35299
G1 X95 Y74.606 E167.13275
G1 X94.785 Y74.566 E167.15017
G1 X94.599 Y74.453 E167.16751
G1 X94.466 Y74.28 E167.1849
G1 X94.4 Y74.006 E167.20735
G1 X94.4 Y32.006 E170.55318
G1 X94.44 Y31.791 E170.5706
M205 X30 Y30
G1 F1500 E168.5706
;MESH:Piston_car_jxn.stl
G0 F1600 X96.814 Y33.82
G0 X107.119 Y41.529
G0 X142.238 Y64.043
G0 X153.13 Y72.136
G0 X154.4 Y73.406
M205 X20 Y20
;TYPE:WALL-OUTER
G1 F1500 E170.5706
G1 F1200 X95.6 Y73.406 E174.82894
G1 X95.6 Y32.606 E177.7837
G1 X154.4 Y32.606 E182.04203
G1 X154.4 Y73.406 E184.99679
M205 X30 Y30
G0 F1600 X154.1 Y73.406
G0 X153.08 Y72.086
G0 X142.238 Y64.043
G0 X141.282 Y63.639
G0 X140.454 Y63.496
G0 X110.411 Y63.427
G0 X110.188 Y64.707
M205 X20 Y20
G1 F1200 X109.437 Y64.751 E185.05128
G1 X108.714 Y64.963 E185.10584
G1 X108.058 Y65.333 E185.16038
G1 X107.503 Y65.842 E185.21492
G1 X107.078 Y66.464 E185.26948
G1 X106.805 Y67.166 E185.32403
G1 X106.697 Y67.912 E185.37862
G1 X106.762 Y68.662 E185.43313
G1 X106.995 Y69.379 E185.48773
G1 X107.384 Y70.024 E185.54228
G1 X107.909 Y70.564 E185.59683
G1 X108.542 Y70.971 E185.65133
G1 X109.235 Y71.219 E185.70463
G1 X109.641 Y71.288 E185.73445
G1 X110.377 Y71.288 E185.78776
G1 X111.11 Y71.118 E185.84225
G1 X111.786 Y70.785 E185.89682
G1 X112.369 Y70.309 E185.95133
G1 X112.829 Y69.712 E186.00591
G1 X113.142 Y69.027 E186.06045
G1 X113.292 Y68.289 E186.11499
G1 X113.271 Y67.536 E186.16955
G1 X113.079 Y66.807 E186.22414
G1 X112.728 Y66.141 E186.27866
G1 X112.234 Y65.572 E186.33323
G1 X111.625 Y65.129 E186.38777
