;FLAVOR:Marlin
;TIME:5016
;Filament used: 5.51918m
;Layer height: 0.35
;MINX:77.89
;MINY:28.511
;MINZ:0.35
;MAXX:173.105
;MAXY:122.276
;MAXZ:39.2
;Generated with Cura_SteamEngine 4.8.0
M140 S75
M105
M190 S75
M104 S210
M105
M109 S210
M82 ;absolute extrusion mode
G28 ;Home
G1 Z15.0 F6000 ;Move the platform down 15mm
G92 E0
G1 F200 E3
G92 E0
M420 S1 ; use bed mesh from eeprom
G92 E0
G92 E0
G1 F1500 E-2
;LAYER_COUNT:112
;LAYER:0
M107
M205 X30 Y30
G0 F1600 X79.443 Y34.367 Z0.35
M205 X20 Y20
;TYPE:SKIRT
G1 F1500 E0
G1 F1200 X79.864 Y33.568 E0.07195
G1 X80.353 Y32.809 E0.14387
G1 X80.908 Y32.096 E0.21585
G1 X81.523 Y31.435 E0.28777
G1 X82.195 Y30.831 E0.35975
G1 X82.917 Y30.289 E0.43167
G1 X83.685 Y29.813 E0.50365
G1 X84.491 Y29.407 E0.57555
G1 X85.331 Y29.074 E0.64753
G1 X86.196 Y28.816 E0.71944
G1 X87.081 Y28.636 E0.79138
G1 X87.979 Y28.535 E0.86337
G1 X88.672 Y28.511 E0.91861
G1 X161.328 Y28.511 E6.70658
G1 X162.23 Y28.551 E6.77851
G1 X163.125 Y28.671 E6.85045
G1 X164.006 Y28.869 E6.92238
G1 X164.866 Y29.144 E6.99431
G1 X165.699 Y29.495 E7.06632
G1 X166.497 Y29.918 E7.13827
G1 X167.254 Y30.409 E7.21015
G1 X167.965 Y30.966 E7.2821
G1 X168.625 Y31.584 E7.35413
G1 X169.226 Y32.257 E7.426
G1 X169.766 Y32.981 E7.49796
G1 X170.24 Y33.75 E7.56992
G1 X170.644 Y34.557 E7.64181
G1 X170.975 Y35.398 E7.71381
G1 X171.23 Y36.264 E7.78573
G1 X171.408 Y37.149 E7.85764
G1 X171.491 Y37.838 E7.91293
G1 X171.927 Y42.915 E8.31886
G1 X171.964 Y43.818 E8.39086
G1 X171.921 Y44.72 E8.4628
G1 X171.799 Y45.614 E8.53467
G1 X171.598 Y46.495 E8.60666
G1 X171.32 Y47.354 E8.67858
G1 X170.967 Y48.186 E8.75058
G1 X170.542 Y48.982 E8.82247
G1 X170.048 Y49.738 E8.89441
G1 X169.49 Y50.448 E8.96635
G1 X168.87 Y51.105 E9.03831
G1 X168.195 Y51.705 E9.11026
G1 X167.47 Y52.243 E9.18218
G1 X166.699 Y52.714 E9.25415
G1 X165.891 Y53.116 E9.32604
G1 X165.049 Y53.444 E9.39803
G1 X164.182 Y53.697 E9.46998
G1 X163.296 Y53.872 E9.54192
G1 X162.398 Y53.968 E9.61387
G1 X161.764 Y53.988 E9.6644
G1 X157.2 Y53.988 E10.02798
G1 X157.199 Y112.076 E14.65543
G1 X157.159 Y112.978 E14.72735
G1 X157.039 Y113.874 E14.79937
G1 X156.841 Y114.755 E14.8713
G1 X156.566 Y115.615 E14.94323
G1 X156.215 Y116.447 E15.01516
G1 X155.792 Y117.245 E15.08711
G1 X155.301 Y118.003 E15.15906
G1 X154.744 Y118.714 E15.23101
G1 X154.126 Y119.373 E15.30298
G1 X153.453 Y119.974 E15.37486
G1 X152.729 Y120.514 E15.44681
G1 X151.96 Y120.988 E15.51878
G1 X151.152 Y121.392 E15.59074
G1 X150.312 Y121.723 E15.66267
G1 X149.446 Y121.978 E15.73458
G1 X148.56 Y122.156 E15.80657
G1 X147.663 Y122.254 E15.87846
G1 X146.999 Y122.276 E15.93138
G1 X103 Y122.276 E19.43646
G1 X102.098 Y122.236 E19.50839
G1 X101.203 Y122.116 E19.58032
G1 X100.322 Y121.918 E19.65226
G1 X99.462 Y121.643 E19.72418
G1 X98.629 Y121.292 E19.79619
G1 X97.831 Y120.869 E19.86814
G1 X97.074 Y120.378 E19.94002
G1 X96.363 Y119.821 E20.01197
G1 X95.703 Y119.203 E20.084
G1 X95.102 Y118.53 E20.15588
G1 X94.562 Y117.806 E20.22783
G1 X94.088 Y117.037 E20.2998
G1 X93.684 Y116.23 E20.37169
G1 X93.353 Y115.389 E20.44369
G1 X93.098 Y114.523 E20.5156
G1 X92.92 Y113.638 E20.58752
G1 X92.822 Y112.74 E20.65948
G1 X92.8 Y112.076 E20.71241
G1 X92.8 Y53.988 E25.33985
G1 X88.235 Y53.988 E25.70351
G1 X87.333 Y53.948 E25.77544
G1 X86.438 Y53.828 E25.84738
G1 X85.557 Y53.63 E25.91931
G1 X84.697 Y53.354 E25.99126
G1 X83.864 Y53.004 E26.06324
G1 X83.066 Y52.581 E26.13519
G1 X82.309 Y52.089 E26.20711
G1 X81.598 Y51.532 E26.27906
G1 X80.939 Y50.915 E26.35098
G1 X80.337 Y50.241 E26.42297
G1 X79.797 Y49.517 E26.49492
G1 X79.323 Y48.748 E26.56688
G1 X78.92 Y47.941 E26.63874
G1 X78.589 Y47.1 E26.71074
G1 X78.334 Y46.234 E26.78266
G1 X78.156 Y45.349 E26.85457
G1 X78.058 Y44.451 E26.92653
G1 X78.039 Y43.548 E26.99848
G1 X78.073 Y42.915 E27.04898
G1 X78.509 Y37.838 E27.45492
G1 X78.626 Y36.943 E27.52682
G1 X78.822 Y36.061 E27.5988
G1 X79.095 Y35.2 E27.67076
G1 X79.443 Y34.367 E27.74267
M205 X30 Y30
G0 F1600 X80.619 Y34.693
M205 X20 Y20
G1 F1200 X81.033 Y33.952 E27.81029
G1 X81.515 Y33.254 E27.87787
G1 X82.06 Y32.605 E27.94538
G1 X82.665 Y32.009 E28.01303
G1 X83.322 Y31.473 E28.08058
G1 X84.028 Y31.002 E28.14819
G1 X84.774 Y30.599 E28.21573
G1 X85.555 Y30.268 E28.28331
G1 X86.364 Y30.012 E28.3509
G1 X87.193 Y29.833 E28.41847
G1 X88.035 Y29.734 E28.486
G1 X88.672 Y29.711 E28.53678
G1 X161.328 Y29.711 E34.32476
G1 X162.175 Y29.751 E34.39231
G1 X163.015 Y29.871 E34.4599
G1 X163.84 Y30.069 E34.52749
G1 X164.643 Y30.344 E34.59511
G1 X165.416 Y30.693 E34.66267
G1 X166.152 Y31.113 E34.73018
G1 X166.846 Y31.601 E34.79776
G1 X167.491 Y32.152 E34.86534
G1 X168.081 Y32.762 E34.93295
G1 X168.611 Y33.424 E35.0005
G1 X169.077 Y34.133 E35.06809
G1 X169.473 Y34.883 E35.13566
G1 X169.798 Y35.667 E35.20326
G1 X170.047 Y36.478 E35.27085
G1 X170.218 Y37.309 E35.33843
G1 X170.295 Y37.941 E35.38915
G1 X170.731 Y43.018 E35.79509
G1 X170.764 Y43.866 E35.86269
G1 X170.716 Y44.713 E35.93028
G1 X170.59 Y45.551 E35.99778
G1 X170.384 Y46.374 E36.06537
G1 X170.103 Y47.175 E36.13299
G1 X169.747 Y47.945 E36.20057
G1 X169.32 Y48.678 E36.26815
G1 X168.826 Y49.367 E36.33569
G1 X168.269 Y50.007 E36.40328
G1 X167.655 Y50.592 E36.47084
G1 X166.988 Y51.117 E36.53846
G1 X166.275 Y51.576 E36.60601
G1 X165.522 Y51.966 E36.67356
G1 X164.735 Y52.284 E36.74118
G1 X163.922 Y52.525 E36.80873
G1 X163.09 Y52.69 E36.8763
G1 X162.246 Y52.775 E36.94388
G1 X161.764 Y52.788 E36.98229
G1 X156 Y52.788 E37.44146
G1 X155.999 Y112.076 E42.16451
G1 X155.959 Y112.923 E42.23206
G1 X155.839 Y113.763 E42.29965
G1 X155.641 Y114.588 E42.36724
G1 X155.366 Y115.391 E42.43486
G1 X155.017 Y116.164 E42.50242
G1 X154.597 Y116.9 E42.56993
G1 X154.109 Y117.594 E42.63751
G1 X153.558 Y118.239 E42.70509
G1 X152.948 Y118.829 E42.7727
G1 X152.286 Y119.359 E42.84025
G1 X151.577 Y119.825 E42.90784
G1 X150.827 Y120.221 E42.97541
G1 X150.043 Y120.546 E43.04302
G1 X149.232 Y120.795 E43.1106
G1 X148.401 Y120.966 E43.17819
G1 X147.558 Y121.059 E43.24575
G1 X146.999 Y121.076 E43.2903
G1 X103 Y121.076 E46.79538
G1 X102.153 Y121.036 E46.86293
G1 X101.313 Y120.916 E46.93053
G1 X100.488 Y120.718 E46.99811
G1 X99.685 Y120.443 E47.06573
G1 X98.912 Y120.094 E47.13329
G1 X98.176 Y119.674 E47.2008
G1 X97.482 Y119.186 E47.26839
G1 X96.837 Y118.635 E47.33597
G1 X96.247 Y118.025 E47.40357
G1 X95.717 Y117.363 E47.47113
G1 X95.251 Y116.654 E47.53872
G1 X94.855 Y115.904 E47.60628
G1 X94.53 Y115.12 E47.67389
G1 X94.281 Y114.309 E47.74147
G1 X94.11 Y113.478 E47.80906
G1 X94.017 Y112.635 E47.87662
G1 X94 Y112.076 E47.92117
G1 X94 Y52.789 E52.64414
G1 X88.235 Y52.788 E53.10339
G1 X87.388 Y52.748 E53.17094
G1 X86.548 Y52.628 E53.23854
G1 X85.723 Y52.43 E53.30613
G1 X84.921 Y52.155 E53.37367
G1 X84.148 Y51.806 E53.44123
G1 X83.411 Y51.385 E53.50885
G1 X82.717 Y50.897 E53.57643
G1 X82.072 Y50.346 E53.64401
G1 X81.482 Y49.737 E53.71156
G1 X80.952 Y49.074 E53.77918
G1 X80.487 Y48.365 E53.84672
G1 X80.09 Y47.615 E53.91432
G1 X79.766 Y46.831 E53.9819
G1 X79.517 Y46.02 E54.04948
G1 X79.346 Y45.189 E54.11707
G1 X79.253 Y44.346 E54.18463
G1 X79.241 Y43.498 E54.25219
G1 X79.269 Y43.018 E54.2905
G1 X79.705 Y37.941 E54.69643
G1 X79.817 Y37.1 E54.76402
G1 X80.008 Y36.274 E54.83156
G1 X80.276 Y35.469 E54.89915
G1 X80.619 Y34.693 E54.96674
M205 X30 Y30
G0 F1600 X81.456 Y35.749
M205 X20 Y20
G1 F1200 X81.793 Y35.035 E55.02963
G1 X82.2 Y34.358 E55.09256
G1 X82.673 Y33.726 E55.15545
G1 X83.208 Y33.145 E55.21836
G1 X83.799 Y32.621 E55.28128
G1 X84.439 Y32.159 E55.34417
G1 X85.124 Y31.765 E55.40712
G1 X85.844 Y31.442 E55.46998
G1 X86.594 Y31.193 E55.53294
G1 X87.364 Y31.021 E55.59579
G1 X88.149 Y30.929 E55.65875
G1 X88.672 Y30.911 E55.70044
G1 X161.328 Y30.911 E61.48841
G1 X162.117 Y30.951 E61.55135
G1 X162.897 Y31.07 E61.6142
G1 X163.662 Y31.268 E61.67715
G1 X164.402 Y31.542 E61.74001
G1 X165.111 Y31.89 E61.80293
G1 X165.782 Y32.308 E61.86591
G1 X166.406 Y32.791 E61.92877
G1 X166.979 Y33.334 E61.99166
G1 X167.494 Y33.933 E62.05459
G1 X167.945 Y34.581 E62.11748
G1 X168.329 Y35.272 E62.18046
G1 X168.641 Y35.997 E62.24333
G1 X168.878 Y36.75 E62.30622
G1 X169.037 Y37.524 E62.36917
G1 X169.099 Y38.044 E62.41088
G1 X169.535 Y43.121 E62.81682
G1 X169.563 Y43.91 E62.87971
G1 X169.511 Y44.698 E62.94262
G1 X169.379 Y45.476 E63.00549
G1 X169.169 Y46.238 E63.06845
G1 X168.884 Y46.974 E63.13133
G1 X168.525 Y47.677 E63.19421
G1 X168.097 Y48.341 E63.25714
G1 X167.604 Y48.958 E63.32006
G1 X167.052 Y49.522 E63.38293
G1 X166.445 Y50.027 E63.44583
G1 X165.79 Y50.469 E63.50878
G1 X165.094 Y50.842 E63.57168
G1 X164.363 Y51.142 E63.63463
G1 X163.607 Y51.367 E63.69746
G1 X162.831 Y51.515 E63.7604
G1 X161.764 Y51.588 E63.8456
G1 X154.8 Y51.588 E64.40037
G1 X154.799 Y112.076 E69.219
G1 X154.759 Y112.865 E69.28194
G1 X154.639 Y113.645 E69.34481
G1 X154.442 Y114.41 E69.40774
G1 X154.168 Y115.15 E69.4706
G1 X153.82 Y115.86 E69.53359
G1 X153.402 Y116.53 E69.5965
G1 X152.919 Y117.154 E69.65936
G1 X152.375 Y117.727 E69.7223
G1 X151.776 Y118.242 E69.78523
G1 X151.129 Y118.693 E69.84806
G1 X150.438 Y119.077 E69.91103
G1 X149.713 Y119.389 E69.97391
G1 X148.96 Y119.626 E70.0368
G1 X148.186 Y119.785 E70.09974
G1 X147.401 Y119.866 E70.16261
G1 X146.999 Y119.876 E70.19465
G1 X103 Y119.876 E73.69973
G1 X102.211 Y119.836 E73.76266
G1 X101.431 Y119.717 E73.82552
G1 X100.666 Y119.519 E73.88847
G1 X99.926 Y119.245 E73.95133
G1 X99.217 Y118.897 E74.01425
G1 X98.546 Y118.479 E74.07722
G1 X97.922 Y117.996 E74.14008
G1 X97.349 Y117.453 E74.20297
G1 X96.834 Y116.854 E74.2659
G1 X96.383 Y116.206 E74.32879
G1 X95.999 Y115.515 E74.39177
G1 X95.687 Y114.79 E74.45465
G1 X95.45 Y114.037 E74.51753
G1 X95.291 Y113.263 E74.58048
G1 X95.21 Y112.478 E74.64335
G1 X95.2 Y112.076 E74.67538
G1 X95.2 Y51.589 E79.49394
G1 X88.235 Y51.588 E80.04879
G1 X87.447 Y51.548 E80.11165
G1 X86.666 Y51.428 E80.17459
G1 X85.901 Y51.23 E80.23754
G1 X85.161 Y50.956 E80.3004
G1 X84.452 Y50.609 E80.36329
G1 X83.782 Y50.191 E80.4262
G1 X83.157 Y49.708 E80.48912
G1 X82.585 Y49.164 E80.552
G1 X82.07 Y48.565 E80.61493
G1 X81.619 Y47.917 E80.67783
G1 X81.235 Y47.227 E80.74073
G1 X80.923 Y46.501 E80.80368
G1 X80.686 Y45.748 E80.86657
G1 X80.527 Y44.974 E80.92952
G1 X80.446 Y44.189 E80.99238
G1 X80.465 Y43.121 E81.07748
G1 X80.901 Y38.044 E81.48341
G1 X81.008 Y37.261 E81.54637
G1 X81.194 Y36.494 E81.60924
G1 X81.456 Y35.749 E81.67215
M205 X30 Y30
G0 F1600 X82.635 Y36.044
M205 X20 Y20
G1 F1200 X82.965 Y35.397 E81.73001
G1 X83.363 Y34.79 E81.78784
G1 X83.826 Y34.23 E81.84572
G1 X84.348 Y33.725 E81.90358
G1 X84.922 Y33.28 E81.96144
G1 X85.542 Y32.901 E82.01932
G1 X86.199 Y32.592 E82.07716
G1 X86.887 Y32.357 E82.13508
G1 X87.596 Y32.199 E82.19295
G1 X88.672 Y32.111 E82.27895
G1 X161.328 Y32.111 E88.06692
G1 X162.053 Y32.151 E88.12477
G1 X162.77 Y32.27 E88.18267
G1 X163.469 Y32.468 E88.24054
G1 X164.142 Y32.741 E88.2984
G1 X164.781 Y33.086 E88.35625
G1 X165.378 Y33.5 E88.41412
G1 X165.926 Y33.976 E88.47195
G1 X166.419 Y34.51 E88.52984
G1 X166.849 Y35.095 E88.58768
G1 X167.213 Y35.724 E88.64557
G1 X167.506 Y36.389 E88.70346
G1 X167.724 Y37.082 E88.76134
G1 X167.904 Y38.146 E88.8473
G1 X168.34 Y43.223 E89.25324
G1 X168.362 Y43.949 E89.3111
G1 X168.304 Y44.673 E89.36896
G1 X168.167 Y45.387 E89.42688
G1 X167.953 Y46.081 E89.48473
G1 X167.664 Y46.747 E89.54257
G1 X167.303 Y47.377 E89.60041
G1 X166.875 Y47.964 E89.65828
G1 X166.385 Y48.5 E89.71614
G1 X165.839 Y48.98 E89.77405
G1 X165.244 Y49.396 E89.83189
G1 X164.607 Y49.745 E89.88975
G1 X163.935 Y50.021 E89.94762
G1 X163.237 Y50.222 E90.00548
G1 X162.521 Y50.344 E90.06335
G1 X161.764 Y50.388 E90.12375
G1 X153.6 Y50.388 E90.77412
G1 X153.599 Y112.076 E95.68835
G1 X153.559 Y112.801 E95.74619
G1 X153.44 Y113.518 E95.80409
G1 X153.242 Y114.217 E95.86197
G1 X152.969 Y114.89 E95.91983
G1 X152.624 Y115.529 E95.97768
G1 X152.21 Y116.126 E96.03555
G1 X151.734 Y116.674 E96.09337
G1 X151.2 Y117.167 E96.15127
G1 X150.615 Y117.597 E96.20911
G1 X149.986 Y117.961 E96.267
G1 X149.321 Y118.254 E96.32489
G1 X148.628 Y118.472 E96.38277
G1 X147.916 Y118.612 E96.44057
G1 X146.999 Y118.676 E96.5138
G1 X103 Y118.676 E100.01888
G1 X102.275 Y118.636 E100.07672
G1 X101.558 Y118.517 E100.13462
G1 X100.859 Y118.319 E100.1925
G1 X100.186 Y118.046 E100.25035
G1 X99.547 Y117.701 E100.3082
G1 X98.95 Y117.287 E100.36608
G1 X98.402 Y116.811 E100.4239
G1 X97.909 Y116.277 E100.4818
G1 X97.479 Y115.692 E100.53964
G1 X97.115 Y115.063 E100.59753
G1 X96.822 Y114.398 E100.65542
G1 X96.604 Y113.705 E100.71329
G1 X96.464 Y112.993 E100.7711
G1 X96.4 Y112.076 E100.84433
G1 X96.4 Y50.389 E105.75848
G1 X88.235 Y50.388 E106.40893
G1 X87.51 Y50.348 E106.46677
G1 X86.794 Y50.228 E106.52461
G1 X86.095 Y50.031 E106.58246
G1 X85.422 Y49.758 E106.64032
G1 X84.783 Y49.412 E106.6982
G1 X84.185 Y48.999 E106.7561
G1 X83.637 Y48.522 E106.81397
G1 X83.145 Y47.988 E106.87182
G1 X82.714 Y47.403 E106.9297
G1 X82.35 Y46.775 E106.98753
G1 X82.058 Y46.11 E107.04538
G1 X81.84 Y45.417 E107.10326
G1 X81.7 Y44.704 E107.16114
G1 X81.639 Y43.98 E107.21902
G1 X81.66 Y43.223 E107.27935
G1 X82.096 Y38.146 E107.68529
G1 X82.198 Y37.427 E107.74314
G1 X82.378 Y36.723 E107.80102
G1 X82.635 Y36.044 E107.85886
M205 X30 Y30
G0 F1600 X83.812 Y36.358
M205 X20 Y20
G1 F1200 X84.133 Y35.785 E107.91118
G1 X84.522 Y35.256 E107.96349
G1 X84.973 Y34.777 E108.0159
G1 X85.478 Y34.357 E108.06823
G1 X86.03 Y34.001 E108.12055
G1 X86.621 Y33.715 E108.17286
G1 X87.243 Y33.503 E108.2252
G1 X87.886 Y33.368 E108.27754
G1 X88.672 Y33.311 E108.34032
G1 X161.328 Y33.311 E114.1283
G1 X161.984 Y33.351 E114.18065
G1 X162.63 Y33.47 E114.23298
G1 X163.257 Y33.667 E114.28534
G1 X163.855 Y33.939 E114.33767
G1 X164.416 Y34.281 E114.39001
G1 X164.931 Y34.689 E114.44235
G1 X165.393 Y35.156 E114.49468
G1 X165.794 Y35.676 E114.547
G1 X166.13 Y36.24 E114.59929
G1 X166.394 Y36.842 E114.65166
G1 X166.584 Y37.471 E114.704
G1 X166.708 Y38.249 E114.76676
G1 X167.144 Y43.326 E115.1727
G1 X167.16 Y43.983 E115.22505
G1 X167.097 Y44.637 E115.27739
G1 X166.954 Y45.278 E115.32971
G1 X166.735 Y45.897 E115.38202
G1 X166.442 Y46.485 E115.43436
G1 X166.08 Y47.033 E115.48668
G1 X165.654 Y47.533 E115.539
G1 X165.17 Y47.978 E115.59138
G1 X164.636 Y48.361 E115.64373
G1 X164.06 Y48.676 E115.69603
G1 X163.449 Y48.918 E115.74838
G1 X162.814 Y49.085 E115.80069
G1 X162.163 Y49.173 E115.85302
G1 X161.764 Y49.188 E115.88483
G1 X153.116 Y49.188 E116.57375
G1 X152.831 Y49.222 E116.59662
G1 X152.607 Y49.367 E116.61787
G1 X152.453 Y49.614 E116.64106
G1 X152.4 Y50.015 E116.67328
G1 X152.399 Y112.076 E121.61723
G1 X152.359 Y112.732 E121.66959
G1 X152.24 Y113.378 E121.72191
G1 X152.043 Y114.005 E121.77427
G1 X151.771 Y114.603 E121.8266
G1 X151.429 Y115.164 E121.87895
G1 X151.021 Y115.679 E121.93129
G1 X150.554 Y116.141 E121.98362
G1 X150.034 Y116.542 E122.03593
G1 X149.469 Y116.878 E122.0883
G1 X148.868 Y117.142 E122.14059
G1 X148.239 Y117.332 E122.19293
G1 X147.592 Y117.443 E122.24523
G1 X146.999 Y117.476 E122.29254
G1 X103 Y117.476 E125.79762
G1 X102.344 Y117.436 E125.84998
G1 X101.698 Y117.317 E125.9023
G1 X101.071 Y117.12 E125.95466
G1 X100.473 Y116.848 E126.00699
G1 X99.912 Y116.506 E126.05933
G1 X99.397 Y116.098 E126.11168
G1 X98.935 Y115.631 E126.16401
G1 X98.534 Y115.111 E126.21632
G1 X98.198 Y114.547 E126.26862
G1 X97.934 Y113.945 E126.32098
G1 X97.744 Y113.316 E126.37333
G1 X97.633 Y112.669 E126.42562
G1 X97.6 Y112.076 E126.47293
G1 X97.6 Y49.189 E131.48268
G1 X88.235 Y49.188 E132.22872
G1 X87.58 Y49.148 E132.281
G1 X86.934 Y49.029 E132.33333
G1 X86.307 Y48.832 E132.38568
G1 X85.709 Y48.56 E132.43802
G1 X85.148 Y48.218 E132.49036
G1 X84.633 Y47.81 E132.5427
G1 X84.171 Y47.343 E132.59503
G1 X83.769 Y46.823 E132.64739
G1 X83.434 Y46.258 E132.69972
G1 X83.17 Y45.657 E132.75201
G1 X82.98 Y45.028 E132.80435
G1 X82.869 Y44.38 E132.85673
G1 X82.836 Y43.724 E132.90905
G1 X82.856 Y43.326 E132.9408
G1 X83.292 Y38.249 E133.34674
G1 X83.388 Y37.599 E133.39908
G1 X83.562 Y36.966 E133.45137
G1 X83.812 Y36.358 E133.50374
M205 X30 Y30
G0 F1600 X84.986 Y36.698
M205 X20 Y20
G1 F1200 X85.298 Y36.21 E133.54989
G1 X85.674 Y35.77 E133.59599
G1 X86.107 Y35.385 E133.64215
